;FLAVOR:Marlin
;TIME:839
;Filament used: 0.258754m
;Layer height: 0.2
;MINX:102.6
;MINY:102.05
;MINZ:0.2
;MAXX:132.4
;MAXY:132.95
;MAXZ:14.6
;Generated with Cura_SteamEngine master
M140 S50
M105
M190 S50
M104 S200
M105
M109 S200
M82 ;absolute extrusion mode
; Ender 3 Custom Start G-code
G92 E0 ; Reset Extruder
G28 ; Home all axes
G1 Z2.0 F3000 ; Move Z Axis up little to prevent scratching of Heat Bed
G1 X0.1 Y20 Z0.3 F5000.0 ; Move to start position
G1 X0.1 Y200.0 Z0.3 F1500.0 E15 ; Draw the first line
G1 X0.4 Y200.0 Z0.3 F5000.0 ; Move to side a little
G1 X0.4 Y20 Z0.3 F1500.0 E30 ; Draw the second line
G92 E0 ; Reset Extruder
G1 Z2.0 F3000 ; Move Z Axis up little to prevent scratching of Heat Bed
G1 X5 Y20 Z0.3 F5000.0 ; Move over to prevent blob squish
G92 E0
G92 E0
G1 F2700 E-5
;LAYER_COUNT:73
;LAYER:0
M107
G0 F6000 X106.377 Y105.606 Z0.2
;TYPE:SKIRT
G1 F2700 E0
G1 F1200 X106.776 Y105.233 E0.01817
G1 X106.876 Y105.144 E0.02262
G1 X107.602 Y104.551 E0.0538
G1 X108.157 Y104.162 E0.07634
G1 X108.401 Y104.002 E0.08604
G1 X109.207 Y103.522 E0.11725
G1 X110.05 Y103.112 E0.14842
G1 X110.552 Y102.909 E0.16643
G1 X110.788 Y102.82 E0.17482
G1 X112.05 Y102.428 E0.21878
G1 X112.205 Y102.39 E0.22408
G1 X113.124 Y102.206 E0.25526
G1 X114.124 Y102.096 E0.28872
G1 X114.375 Y102.08 E0.29708
G1 X114.746 Y102.063 E0.30943
G1 X114.98 Y102.056 E0.31722
G1 X115.305 Y102.051 E0.32803
G1 X118.213 Y102.05 E0.42475
G1 X119.442 Y102.07 E0.46563
G1 X120.379 Y102.126 E0.49685
G1 X120.944 Y102.199 E0.5158
G1 X121.188 Y102.237 E0.52402
G1 X122.547 Y102.538 E0.57031
G1 X122.779 Y102.605 E0.57834
G1 X123.696 Y102.914 E0.61053
G1 X123.864 Y102.979 E0.61652
G1 X124.814 Y103.399 E0.65107
G1 X125.038 Y103.511 E0.6594
G1 X126.018 Y104.066 E0.69686
G1 X126.114 Y104.127 E0.70064
G1 X126.765 Y104.574 E0.7269
G1 X126.993 Y104.743 E0.73634
G1 X127.878 Y105.473 E0.7745
G1 X128.047 Y105.628 E0.78213
G1 X128.983 Y106.598 E0.82696
G1 X129.197 Y106.849 E0.83793
G1 X129.93 Y107.811 E0.87816
G1 X130.086 Y108.041 E0.8874
G1 X130.616 Y108.906 E0.92114
G1 X130.713 Y109.082 E0.92783
G1 X131.08 Y109.812 E0.955
G1 X131.167 Y110.002 E0.96195
G1 X131.408 Y110.57 E0.98247
G1 X131.455 Y110.69 E0.98676
G1 X131.838 Y111.853 E1.02749
G1 X131.923 Y112.17 E1.0384
G1 X132.086 Y112.871 E1.06234
G1 X132.132 Y113.102 E1.07017
G1 X132.255 Y113.855 E1.09555
G1 X132.294 Y114.16 E1.10578
G1 X132.381 Y115.368 E1.14606
G1 X132.4 Y116.556 E1.18558
G1 X132.399 Y118.623 E1.25433
G1 X132.382 Y119.666 E1.28902
G1 X132.326 Y120.603 E1.32024
G1 X132.255 Y121.162 E1.33898
G1 X132.202 Y121.506 E1.35056
G1 X132.055 Y122.275 E1.3766
G1 X132.001 Y122.512 E1.38468
G1 X131.834 Y123.156 E1.40681
G1 X131.748 Y123.45 E1.417
G1 X131.446 Y124.338 E1.4482
G1 X131.154 Y125.023 E1.47296
G1 X131.009 Y125.333 E1.48435
G1 X130.5 Y126.293 E1.52049
G1 X130.371 Y126.51 E1.52888
G1 X129.628 Y127.605 E1.5729
G1 X129.406 Y127.893 E1.58499
G1 X128.595 Y128.831 E1.62623
G1 X128.44 Y128.991 E1.63364
G1 X127.698 Y129.689 E1.66752
G1 X127.537 Y129.827 E1.67458
G1 X126.465 Y130.637 E1.71926
G1 X126.179 Y130.827 E1.73068
G1 X125.263 Y131.374 E1.76617
G1 X125.171 Y131.423 E1.76964
G1 X124.366 Y131.81 E1.79934
G1 X124.144 Y131.906 E1.80739
G1 X123.268 Y132.242 E1.83859
G1 X122.749 Y132.401 E1.85665
G1 X122.421 Y132.493 E1.86798
G1 X121.082 Y132.78 E1.91353
G1 X120.962 Y132.798 E1.91756
G1 X120.014 Y132.899 E1.94927
G1 X119.645 Y132.922 E1.96157
G1 X119.207 Y132.94 E1.97615
G1 X118.648 Y132.95 E1.99474
G1 X115.549 Y132.949 E2.09782
G1 X114.803 Y132.938 E2.12263
G1 X113.716 Y132.868 E2.15886
G1 X113.506 Y132.844 E2.16589
G1 X112.58 Y132.698 E2.19707
G1 X111.504 Y132.424 E2.234
G1 X111.365 Y132.381 E2.23884
G1 X110.467 Y132.06 E2.27056
G1 X110.273 Y131.981 E2.27752
G1 X109.284 Y131.519 E2.31383
G1 X109.231 Y131.491 E2.31582
G1 X108.421 Y131.018 E2.34702
G1 X107.816 Y130.6 E2.37148
G1 X107.576 Y130.422 E2.38142
G1 X106.847 Y129.832 E2.41261
G1 X105.909 Y128.897 E2.45666
G1 X105.7 Y128.662 E2.46712
G1 X105.108 Y127.935 E2.4983
G1 X104.579 Y127.161 E2.52949
G1 X104.168 Y126.44 E2.55709
G1 X103.976 Y126.072 E2.57089
G1 X103.578 Y125.223 E2.60208
G1 X103.253 Y124.343 E2.63328
G1 X103.096 Y123.806 E2.65189
G1 X103.023 Y123.531 E2.66135
G1 X102.849 Y122.765 E2.68748
G1 X102.81 Y122.56 E2.69442
G1 X102.674 Y121.632 E2.72562
G1 X102.617 Y120.685 E2.75717
G1 X102.601 Y119.715 E2.78944
G1 X102.6 Y115.466 E2.93076
G1 X102.601 Y115.294 E2.93648
G1 X102.616 Y114.337 E2.96831
G1 X102.671 Y113.4 E2.99953
G1 X102.816 Y112.418 E3.03255
G1 X102.871 Y112.134 E3.04217
G1 X103.122 Y111.106 E3.07736
G1 X103.198 Y110.849 E3.08628
G1 X103.502 Y109.961 E3.1175
G1 X103.88 Y109.103 E3.14868
G1 X104.134 Y108.619 E3.16686
G1 X104.321 Y108.283 E3.17965
G1 X104.812 Y107.483 E3.21087
G1 X105.581 Y106.473 E3.25309
G1 X105.737 Y106.291 E3.26106
G1 X106.377 Y105.606 E3.29224
G0 F6000 X106.67 Y105.879
G1 F1200 X107.042 Y105.532 E3.30916
G1 X107.142 Y105.443 E3.31362
G1 X107.855 Y104.861 E3.34423
G1 X108.376 Y104.497 E3.36537
G1 X108.62 Y104.337 E3.37507
G1 X109.412 Y103.866 E3.40572
G1 X110.24 Y103.465 E3.43632
G1 X110.693 Y103.283 E3.45256
G1 X110.929 Y103.194 E3.46095
G1 X112.145 Y102.817 E3.50329
G1 X112.3 Y102.779 E3.5086
G1 X113.203 Y102.599 E3.53922
G1 X114.15 Y102.495 E3.57091
G1 X114.401 Y102.479 E3.57927
G1 X114.758 Y102.463 E3.59116
G1 X114.992 Y102.456 E3.59895
G1 X115.305 Y102.451 E3.60936
G1 X118.213 Y102.45 E3.70608
G1 X119.435 Y102.47 E3.74673
G1 X120.354 Y102.526 E3.77735
G1 X120.882 Y102.594 E3.79506
G1 X121.126 Y102.632 E3.80327
G1 X122.436 Y102.922 E3.8479
G1 X122.668 Y102.989 E3.85593
G1 X123.552 Y103.287 E3.88695
G1 X123.72 Y103.352 E3.89295
G1 X124.635 Y103.757 E3.92623
G1 X124.859 Y103.869 E3.93456
G1 X125.804 Y104.403 E3.97066
G1 X125.9 Y104.464 E3.97444
G1 X126.527 Y104.895 E3.99975
G1 X126.755 Y105.064 E4.00919
G1 X127.608 Y105.768 E4.04597
G1 X127.777 Y105.923 E4.0536
G1 X128.678 Y106.858 E4.09679
G1 X128.892 Y107.109 E4.10776
G1 X129.599 Y108.036 E4.14653
G1 X129.755 Y108.266 E4.15578
G1 X130.265 Y109.1 E4.18829
G1 X130.362 Y109.276 E4.19498
G1 X130.717 Y109.979 E4.22117
G1 X130.804 Y110.169 E4.22812
G1 X131.036 Y110.716 E4.24788
G1 X131.083 Y110.836 E4.25217
G1 X131.451 Y111.957 E4.29141
G1 X131.536 Y112.274 E4.30233
G1 X131.694 Y112.949 E4.32538
G1 X131.74 Y113.18 E4.33322
G1 X131.858 Y113.906 E4.35768
G1 X131.897 Y114.211 E4.36791
G1 X131.981 Y115.375 E4.40672
G1 X132 Y116.556 E4.44601
G1 X131.999 Y118.617 E4.51456
G1 X131.982 Y119.66 E4.54925
G1 X131.927 Y120.579 E4.57987
G1 X131.859 Y121.101 E4.59738
G1 X131.806 Y121.445 E4.60896
G1 X131.665 Y122.186 E4.63405
G1 X131.611 Y122.423 E4.64213
G1 X131.45 Y123.044 E4.66347
G1 X131.364 Y123.338 E4.67366
G1 X131.067 Y124.21 E4.7043
G1 X130.792 Y124.853 E4.72756
G1 X130.647 Y125.163 E4.73894
G1 X130.157 Y126.089 E4.77378
G1 X130.028 Y126.306 E4.78218
G1 X129.311 Y127.36 E4.82458
G1 X129.089 Y127.648 E4.83667
G1 X128.307 Y128.552 E4.87643
G1 X128.152 Y128.712 E4.88384
G1 X127.437 Y129.385 E4.9165
G1 X127.276 Y129.523 E4.92355
G1 X126.244 Y130.304 E4.9666
G1 X125.958 Y130.494 E4.97802
G1 X125.075 Y131.021 E5.01222
G1 X124.983 Y131.07 E5.01568
G1 X124.207 Y131.443 E5.04432
G1 X123.985 Y131.539 E5.05237
G1 X123.125 Y131.868 E5.08299
G1 X122.641 Y132.016 E5.09982
G1 X122.313 Y132.108 E5.11116
G1 X121.022 Y132.385 E5.15507
G1 X120.902 Y132.403 E5.15911
G1 X119.989 Y132.499 E5.18964
G1 X119.62 Y132.522 E5.20194
G1 X119.198 Y132.54 E5.21599
G1 X118.648 Y132.55 E5.23428
G1 X115.555 Y132.549 E5.33716
G1 X114.809 Y132.538 E5.36197
G1 X113.761 Y132.47 E5.3969
G1 X113.551 Y132.446 E5.40393
G1 X112.642 Y132.302 E5.43454
G1 X111.622 Y132.042 E5.46955
G1 X111.483 Y131.999 E5.47439
G1 X110.618 Y131.689 E5.50495
G1 X110.424 Y131.61 E5.51192
G1 X109.471 Y131.165 E5.5469
G1 X109.418 Y131.137 E5.5489
G1 X108.623 Y130.672 E5.57953
G1 X108.054 Y130.279 E5.60253
G1 X107.814 Y130.101 E5.61247
G1 X107.1 Y129.521 E5.64306
G1 X106.208 Y128.631 E5.68497
G1 X105.999 Y128.396 E5.69543
G1 X105.418 Y127.682 E5.72605
G1 X104.901 Y126.921 E5.75665
G1 X104.522 Y126.255 E5.78214
G1 X104.33 Y125.887 E5.79594
G1 X103.94 Y125.053 E5.82656
G1 X103.624 Y124.189 E5.85716
G1 X103.483 Y123.704 E5.87396
G1 X103.41 Y123.429 E5.88342
G1 X103.242 Y122.69 E5.90863
G1 X103.203 Y122.485 E5.91557
G1 X103.07 Y121.574 E5.94619
G1 X103.017 Y120.679 E5.97601
G1 X103.001 Y119.709 E6.00828
G1 X103 Y115.466 E6.1494
G1 X103.016 Y114.343 E6.18676
G1 X103.071 Y113.424 E6.21738
G1 X103.208 Y112.494 E6.24864
G1 X103.263 Y112.21 E6.25826
G1 X103.505 Y111.219 E6.29219
G1 X103.581 Y110.962 E6.30111
G1 X103.88 Y110.091 E6.33174
G1 X104.254 Y109.25 E6.36235
G1 X104.484 Y108.813 E6.37877
G1 X104.671 Y108.477 E6.39156
G1 X105.153 Y107.693 E6.42217
G1 X105.885 Y106.734 E6.4623
G1 X106.041 Y106.552 E6.47027
G1 X106.67 Y105.879 E6.50091
G0 F6000 X106.962 Y106.153
G1 F1200 X107.308 Y105.831 E6.51663
G1 X107.408 Y105.742 E6.52108
G1 X108.108 Y105.172 E6.55111
G1 X108.596 Y104.831 E6.57091
G1 X108.84 Y104.671 E6.58061
G1 X109.616 Y104.21 E6.61064
G1 X110.834 Y103.657 E6.65513
G1 X111.07 Y103.568 E6.66351
G1 X112.24 Y103.205 E6.70426
G1 X112.395 Y103.167 E6.70957
G1 X113.281 Y102.991 E6.73961
G1 X114.175 Y102.895 E6.76952
G1 X114.426 Y102.879 E6.77788
G1 X114.77 Y102.863 E6.78934
G1 X115.004 Y102.856 E6.79712
G1 X115.305 Y102.851 E6.80713
G1 X118.213 Y102.85 E6.90386
G1 X119.429 Y102.87 E6.94431
G1 X120.33 Y102.925 E6.97433
G1 X120.821 Y102.989 E6.9908
G1 X121.065 Y103.027 E6.99901
G1 X122.325 Y103.306 E7.04193
G1 X122.557 Y103.373 E7.04997
G1 X123.408 Y103.66 E7.07984
G1 X123.576 Y103.725 E7.08583
G1 X124.457 Y104.115 E7.11787
G1 X124.681 Y104.227 E7.1262
G1 X125.589 Y104.741 E7.1609
G1 X125.685 Y104.802 E7.16469
G1 X126.289 Y105.217 E7.18906
G1 X126.517 Y105.386 E7.1985
G1 X127.337 Y106.063 E7.23387
G1 X127.506 Y106.218 E7.2415
G1 X128.374 Y107.117 E7.28306
G1 X128.588 Y107.368 E7.29403
G1 X129.267 Y108.26 E7.33132
G1 X129.423 Y108.49 E7.34056
G1 X129.915 Y109.293 E7.37188
G1 X130.012 Y109.469 E7.37857
G1 X130.353 Y110.145 E7.40375
G1 X130.44 Y110.335 E7.4107
G1 X130.664 Y110.862 E7.42974
G1 X130.711 Y110.982 E7.43403
G1 X131.065 Y112.06 E7.47177
G1 X131.15 Y112.377 E7.48268
G1 X131.302 Y113.027 E7.50489
G1 X131.348 Y113.258 E7.51272
G1 X131.462 Y113.956 E7.53624
G1 X131.501 Y114.261 E7.54647
G1 X131.582 Y115.382 E7.58385
G1 X131.599 Y116.383 E7.61715
G1 X131.6 Y118.444 E7.6857
G1 X131.599 Y118.61 E7.69122
G1 X131.582 Y119.653 E7.72592
G1 X131.527 Y120.555 E7.75597
G1 X131.464 Y121.04 E7.77224
G1 X131.411 Y121.384 E7.78382
G1 X131.275 Y122.097 E7.80796
G1 X131.221 Y122.334 E7.81604
G1 X131.066 Y122.932 E7.83659
G1 X130.98 Y123.226 E7.84678
G1 X130.688 Y124.08 E7.8768
G1 X130.429 Y124.684 E7.89865
G1 X130.284 Y124.994 E7.91004
G1 X129.813 Y125.884 E7.94353
G1 X129.684 Y126.101 E7.95192
G1 X128.995 Y127.116 E7.99273
G1 X128.773 Y127.404 E8.00482
G1 X128.02 Y128.274 E8.04309
G1 X127.865 Y128.434 E8.0505
G1 X127.177 Y129.081 E8.08191
G1 X127.016 Y129.219 E8.08897
G1 X126.022 Y129.971 E8.13042
G1 X125.736 Y130.161 E8.14184
G1 X124.887 Y130.668 E8.17473
G1 X124.795 Y130.717 E8.1782
G1 X124.048 Y131.076 E8.20576
G1 X123.826 Y131.172 E8.21381
G1 X122.983 Y131.494 E8.24382
G1 X122.533 Y131.631 E8.25947
G1 X122.205 Y131.723 E8.2708
G1 X120.963 Y131.989 E8.31304
G1 X120.843 Y132.007 E8.31708
G1 X119.965 Y132.1 E8.34645
G1 X119.596 Y132.123 E8.35874
G1 X119.189 Y132.14 E8.37229
G1 X118.648 Y132.15 E8.39029
G1 X115.561 Y132.149 E8.49296
G1 X114.815 Y132.138 E8.51778
G1 X113.807 Y132.073 E8.55137
G1 X113.597 Y132.049 E8.5584
G1 X112.705 Y131.907 E8.58844
G1 X111.741 Y131.659 E8.62155
G1 X111.602 Y131.616 E8.62639
G1 X110.769 Y131.319 E8.6558
G1 X110.575 Y131.24 E8.66277
G1 X109.657 Y130.812 E8.69646
G1 X109.604 Y130.784 E8.69845
G1 X108.825 Y130.327 E8.72849
G1 X108.293 Y129.958 E8.75003
G1 X108.053 Y129.78 E8.75996
G1 X107.352 Y129.21 E8.79001
G1 X106.507 Y128.366 E8.82974
G1 X106.298 Y128.131 E8.8402
G1 X105.729 Y127.43 E8.87023
G1 X105.223 Y126.681 E8.90029
G1 X104.877 Y126.07 E8.92364
G1 X104.685 Y125.702 E8.93745
G1 X104.303 Y124.884 E8.96748
G1 X103.869 Y123.601 E9.01253
G1 X103.796 Y123.326 E9.02199
G1 X103.635 Y122.615 E9.04624
G1 X103.596 Y122.41 E9.05318
G1 X103.466 Y121.517 E9.08319
G1 X103.417 Y120.672 E9.11134
G1 X103.401 Y119.702 E9.14361
G1 X103.4 Y115.466 E9.2845
G1 X103.416 Y114.349 E9.32165
G1 X103.47 Y113.448 E9.35168
G1 X103.601 Y112.57 E9.3812
G1 X103.656 Y112.286 E9.39082
G1 X103.889 Y111.332 E9.42349
G1 X103.965 Y111.075 E9.4324
G1 X104.259 Y110.222 E9.46241
G1 X104.833 Y109.008 E9.50707
G1 X105.02 Y108.672 E9.51986
G1 X105.494 Y107.903 E9.54991
G1 X106.189 Y106.994 E9.58796
G1 X106.345 Y106.812 E9.59594
G1 X106.962 Y106.153 E9.62596
G1 F2700 E4.62596
;MESH:drone-foot.stl
G0 F6000 X116.841 Y116.841
G0 X115.808 Y115.808
G0 X115.498 Y117.103
G0 X115.458 Y117.5
G0 X115.614 Y118.281
G0 X115.803 Y118.635
G0 X116.365 Y119.197
G0 X117.5 Y119.703
;TYPE:WALL-INNER
G1 F2700 E9.62596
G1 F1200 X117.926 Y119.661 E9.6402
G1 X118.343 Y119.535 E9.65469
G1 X118.725 Y119.331 E9.66909
G1 X119.059 Y119.056 E9.68348
G1 X119.332 Y118.721 E9.69786
G1 X119.536 Y118.34 E9.71223
G1 X119.66 Y117.927 E9.72657
G1 X119.703 Y117.498 E9.74091
G1 X119.66 Y117.066 E9.75535
G1 X119.533 Y116.654 E9.76969
G1 X119.33 Y116.274 E9.78402
G1 X119.056 Y115.942 E9.79834
G1 X118.722 Y115.668 E9.81271
G1 X118.342 Y115.464 E9.82705
G1 X117.927 Y115.34 E9.84146
G1 X117.498 Y115.297 E9.8558
G1 X117.066 Y115.34 E9.87024
G1 X116.654 Y115.467 E9.88458
G1 X116.275 Y115.67 E9.89888
G1 X115.943 Y115.943 E9.91317
G1 X115.669 Y116.275 E9.92749
G1 X115.465 Y116.657 E9.94189
G1 X115.34 Y117.071 E9.95628
G1 X115.297 Y117.5 E9.97062
G1 X115.34 Y117.929 E9.98496
G1 X115.465 Y118.343 E9.99934
G1 X115.669 Y118.725 E10.01374
G1 X115.943 Y119.057 E10.02806
G1 X116.275 Y119.331 E10.04238
G1 X116.657 Y119.535 E10.05678
G1 X117.071 Y119.66 E10.07117
G1 X117.5 Y119.703 E10.08551
G0 F6000 X117.5 Y119.301
;TYPE:WALL-OUTER
G1 F1200 X117.848 Y119.267 E10.09714
G1 X118.189 Y119.164 E10.10898
G1 X118.501 Y118.997 E10.12075
G1 X118.774 Y118.772 E10.13252
G1 X118.998 Y118.498 E10.14429
G1 X119.164 Y118.187 E10.15602
G1 X119.266 Y117.849 E10.16776
G1 X119.301 Y117.498 E10.17949
G1 X119.266 Y117.146 E10.19126
G1 X119.162 Y116.809 E10.20299
G1 X118.996 Y116.498 E10.21471
G1 X118.772 Y116.226 E10.22643
G1 X118.499 Y116.002 E10.23818
G1 X118.189 Y115.836 E10.24987
G1 X117.849 Y115.734 E10.26168
G1 X117.498 Y115.699 E10.27341
G1 X117.146 Y115.734 E10.28518
G1 X116.809 Y115.838 E10.29691
G1 X116.498 Y116.004 E10.30863
G1 X116.227 Y116.227 E10.32031
G1 X116.003 Y116.499 E10.33203
G1 X115.836 Y116.811 E10.3438
G1 X115.734 Y117.149 E10.35554
G1 X115.699 Y117.5 E10.36727
G1 X115.734 Y117.851 E10.379
G1 X115.836 Y118.189 E10.39075
G1 X116.003 Y118.501 E10.40252
G1 X116.227 Y118.773 E10.41424
G1 X116.499 Y118.997 E10.42595
G1 X116.811 Y119.164 E10.43773
G1 X117.149 Y119.266 E10.44947
G1 X117.5 Y119.301 E10.4612
G0 F6000 X117.5 Y119.741
G1 F2700 E5.4612
G0 F6000 X116.583 Y119.712
G0 X116.583 Y121.14
G0 X114.833 Y121.323
;TYPE:WALL-INNER
G1 F2700 E10.4612
G1 F1200 X114.511 Y121.131 E10.47367
G1 X114.377 Y120.967 E10.48071
G1 X114.271 Y120.75 E10.48875
G1 X114.211 Y120.507 E10.49707
G1 X114.2 Y120.336 E10.50277
G1 X114.2 Y114.681 E10.69086
G1 X114.23 Y114.397 E10.70035
G1 X114.415 Y113.979 E10.71556
G1 X114.564 Y113.821 E10.72278
G1 X114.892 Y113.663 E10.73489
G1 X115.036 Y113.65 E10.7397
G1 X119.003 Y113.65 E10.87164
G1 X119.321 Y113.676 E10.88225
G1 X119.58 Y113.747 E10.89119
G1 X119.817 Y113.859 E10.8999
G1 X120.045 Y114.018 E10.90915
G1 X120.264 Y114.23 E10.91929
G1 X120.451 Y114.483 E10.92975
G1 X120.594 Y114.746 E10.93971
G1 X120.707 Y115.057 E10.95071
G1 X120.775 Y115.377 E10.96159
G1 X120.8 Y115.734 E10.9735
G1 X120.8 Y119.261 E11.09081
G1 X120.776 Y119.618 E11.10271
G1 X120.708 Y119.94 E11.11365
G1 X120.595 Y120.249 E11.1246
G1 X120.451 Y120.518 E11.13474
G1 X120.264 Y120.77 E11.14518
G1 X120.045 Y120.982 E11.15532
G1 X119.819 Y121.14 E11.16449
G1 X119.579 Y121.254 E11.17333
G1 X119.315 Y121.325 E11.18242
