;FLAVOR:Marlin
;TIME:12418
;Filament used: 6.65954m
;Layer height: 0.2
;MINX:11.02
;MINY:12.184
;MINZ:0.2
;MAXX:228.121
;MAXY:224.293
;MAXZ:2
;Generated with Cura_SteamEngine master
M140 S50
M105
M190 S50
M104 S200
M105
M109 S200
M82 ;absolute extrusion mode
; Ender 3 Custom Start G-code
G92 E0 ; Reset Extruder
G28 ; Home all axes
G1 Z2.0 F3000 ; Move Z Axis up little to prevent scratching of Heat Bed
G1 X0.1 Y20 Z0.3 F5000.0 ; Move to start position
G1 X0.1 Y200.0 Z0.3 F1500.0 E15 ; Draw the first line
G1 X0.4 Y200.0 Z0.3 F5000.0 ; Move to side a little
G1 X0.4 Y20 Z0.3 F1500.0 E30 ; Draw the second line
G92 E0 ; Reset Extruder
G1 Z2.0 F3000 ; Move Z Axis up little to prevent scratching of Heat Bed
G1 X5 Y20 Z0.3 F5000.0 ; Move over to prevent blob squish
G92 E0
G92 E0
G1 F2700 E-5
;LAYER_COUNT:10
;LAYER:0
M107
G0 F6000 X14.634 Y15.026 Z0.2
;TYPE:SKIRT
G1 F2700 E0
G1 F1200 X15.355 Y14.427 E0.03118
G1 X16.125 Y13.891 E0.06238
G1 X16.937 Y13.423 E0.09355
G1 X17.787 Y13.025 E0.12477
G1 X18.667 Y12.702 E0.15595
G1 X19.572 Y12.454 E0.18716
G1 X20.494 Y12.285 E0.21833
G1 X21.428 Y12.195 E0.24954
G1 X22.366 Y12.184 E0.28074
G1 X23.301 Y12.254 E0.31193
G1 X23.798 Y12.324 E0.32862
G1 X24.58 Y12.453 E0.35498
G1 X93.634 Y24.829 E2.68832
G1 X94.342 Y24.966 E2.71231
G1 X95.254 Y25.184 E2.7435
G1 X96.145 Y25.478 E2.7747
G1 X97.007 Y25.847 E2.80589
G1 X97.835 Y26.288 E2.83709
G1 X98.601 Y26.783 E2.86743
G1 X99.614 Y27.499 E2.90868
G1 X101.712 Y28.938 E2.9933
G1 X103.833 Y30.307 E3.07726
G1 X105.984 Y31.61 E3.16091
G1 X108.178 Y32.856 E3.24483
G1 X110.404 Y34.039 E3.32867
G1 X112.644 Y35.148 E3.4118
G1 X114.935 Y36.203 E3.4957
G1 X117.274 Y37.202 E3.58029
G1 X119.625 Y38.129 E3.66434
G1 X121.939 Y38.963 E3.74615
G1 X124.376 Y39.766 E3.83149
G1 X126.765 Y40.48 E3.91443
G1 X129.189 Y41.13 E3.9979
G1 X131.652 Y41.715 E4.0821
G1 X134.152 Y42.237 E4.16704
G1 X136.579 Y42.67 E4.24904
G1 X139.083 Y43.046 E4.33325
G1 X141.588 Y43.349 E4.41718
G1 X144.085 Y43.58 E4.50058
G1 X146.582 Y43.74 E4.5838
G1 X149.103 Y43.83 E4.66771
G1 X151.628 Y43.849 E4.75169
G1 X154.142 Y43.796 E4.83532
G1 X156.687 Y43.67 E4.92007
G1 X159.174 Y43.478 E5.00304
G1 X161.673 Y43.212 E5.08663
G1 X164.175 Y42.875 E5.17059
G1 X166.621 Y42.474 E5.25303
G1 X169.127 Y41.991 E5.33792
G1 X171.577 Y41.446 E5.4214
G1 X174.118 Y40.805 E5.50856
G1 X175.217 Y40.512 E5.54639
G1 X176.132 Y40.31 E5.57755
G1 X177.062 Y40.186 E5.60876
G1 X177.999 Y40.142 E5.63996
G1 X178.936 Y40.178 E5.67115
G1 X179.828 Y40.287 E5.70104
G1 X180.633 Y40.42 E5.72817
G1 X218.394 Y47.187 E7.00412
G1 X219.223 Y47.348 E7.0322
G1 X220.135 Y47.566 E7.06339
G1 X221.026 Y47.861 E7.09461
G1 X221.887 Y48.231 E7.12578
G1 X222.715 Y48.673 E7.157
G1 X223.501 Y49.184 E7.18818
G1 X224.241 Y49.76 E7.21937
G1 X224.93 Y50.397 E7.25058
G1 X225.561 Y51.09 E7.28175
G1 X226.132 Y51.834 E7.31294
G1 X226.637 Y52.625 E7.34416
G1 X227.072 Y53.455 E7.37532
G1 X227.436 Y54.32 E7.40654
G1 X227.724 Y55.212 E7.43771
G1 X227.935 Y56.126 E7.46891
G1 X228.068 Y57.055 E7.50013
G1 X228.121 Y57.991 E7.53131
G1 X228.094 Y58.928 E7.56248
G1 X227.987 Y59.86 E7.59369
G1 X227.802 Y60.78 E7.6249
G1 X227.539 Y61.68 E7.65608
G1 X227.2 Y62.554 E7.68726
G1 X226.787 Y63.397 E7.71849
G1 X226.305 Y64.201 E7.74967
G1 X225.756 Y64.961 E7.78085
G1 X225.433 Y65.351 E7.79769
G1 X224.819 Y66.057 E7.82881
G1 X221.844 Y69.377 E7.97708
G1 X220.156 Y71.316 E8.06259
G1 X218.554 Y73.265 E8.1465
G1 X217.009 Y75.255 E8.23029
G1 X215.534 Y77.274 E8.31346
G1 X214.08 Y79.382 E8.39863
G1 X212.729 Y81.467 E8.48126
G1 X211.426 Y83.607 E8.56459
G1 X210.172 Y85.807 E8.64882
G1 X208.98 Y88.04 E8.73301
G1 X207.866 Y90.279 E8.81619
G1 X206.807 Y92.566 E8.90001
G1 X205.816 Y94.878 E8.98367
G1 X204.877 Y97.247 E9.06843
G1 X204.033 Y99.569 E9.15061
G1 X203.232 Y101.982 E9.23517
G1 X202.512 Y104.378 E9.31838
G1 X201.851 Y106.822 E9.40259
G1 X201.258 Y109.289 E9.48698
G1 X200.749 Y111.718 E9.56952
G1 X200.298 Y114.21 E9.65375
G1 X199.921 Y116.688 E9.73712
G1 X199.62 Y119.144 E9.81942
G1 X199.283 Y122.961 E9.94687
G1 X199.21 Y124.036 E9.9827
G1 X199.082 Y125.117 E10.01891
G1 X199.037 Y125.384 E10.02791
G1 X198.734 Y126.689 E10.07247
G1 X198.693 Y126.827 E10.07726
G1 X198.388 Y127.714 E10.10846
G1 X198.009 Y128.571 E10.13962
G1 X197.466 Y129.541 E10.1766
G1 X196.757 Y130.668 E10.22088
G1 X196.306 Y131.358 E10.2483
G1 X194.98 Y133.516 E10.33254
G1 X193.741 Y135.668 E10.41513
G1 X192.537 Y137.902 E10.49954
G1 X191.417 Y140.129 E10.58245
G1 X190.336 Y142.439 E10.66728
G1 X189.342 Y144.73 E10.75034
G1 X188.409 Y147.057 E10.83373
G1 X187.534 Y149.432 E10.91791
G1 X186.723 Y151.84 E11.00242
G1 X185.995 Y154.226 E11.08539
G1 X185.331 Y156.644 E11.16879
G1 X184.723 Y159.125 E11.25375
G1 X184.201 Y161.566 E11.33677
G1 X183.742 Y164.038 E11.4204
G1 X183.501 Y165.524 E11.47047
G1 X183.32 Y166.701 E11.51008
G1 X183.137 Y167.621 E11.54127
G1 X182.877 Y168.522 E11.57247
G1 X182.542 Y169.398 E11.60366
G1 X182.105 Y170.292 E11.63676
G1 X182.045 Y170.402 E11.64092
G1 X181.561 Y171.206 E11.67214
G1 X181.011 Y171.965 E11.70331
G1 X180.397 Y172.675 E11.73453
G1 X179.726 Y173.33 E11.76572
G1 X179.001 Y173.925 E11.79691
G1 X178.229 Y174.456 E11.82808
G1 X177.413 Y174.92 E11.8593
G1 X176.561 Y175.313 E11.89051
G1 X175.679 Y175.631 E11.92169
G1 X174.773 Y175.873 E11.95288
G1 X173.477 Y176.081 E11.99654
G1 X173.266 Y176.102 E12.00359
G1 X172.335 Y176.155 E12.03461
G1 X171.869 Y176.159 E12.0501
G1 X171.201 Y176.153 E12.07232
G1 X168.936 Y176.146 E12.14766
G1 X166.415 Y176.208 E12.23153
G1 X163.896 Y176.342 E12.31543
G1 X161.365 Y176.548 E12.39989
G1 X158.886 Y176.821 E12.48284
G1 X156.377 Y177.168 E12.56709
G1 X153.921 Y177.58 E12.64992
G1 X151.437 Y178.069 E12.73412
G1 X148.982 Y178.625 E12.81784
G1 X146.54 Y179.251 E12.90169
G1 X144.134 Y179.941 E12.98494
G1 X141.724 Y180.706 E13.06904
G1 X139.346 Y181.536 E13.15281
G1 X137.036 Y182.417 E13.23504
G1 X134.67 Y183.395 E13.32019
G1 X132.346 Y184.436 E13.40489
G1 X130.118 Y185.508 E13.48712
G1 X127.674 Y186.774 E13.57867
G1 X127.047 Y187.111 E13.60234
G1 X126.486 Y187.393 E13.62323
G1 X125.29 Y187.95 E13.66711
G1 X122.954 Y189.079 E13.7534
G1 X120.733 Y190.233 E13.83665
G1 X118.521 Y191.461 E13.9208
G1 X116.365 Y192.739 E14.00416
G1 X114.242 Y194.08 E14.08768
G1 X112.137 Y195.496 E14.17205
G1 X110.083 Y196.963 E14.25601
G1 X108.09 Y198.474 E14.33919
G1 X106.13 Y200.047 E14.42278
G1 X104.206 Y201.683 E14.50678
G1 X102.346 Y203.359 E14.59005
G1 X100.509 Y205.11 E14.67446
G1 X98.762 Y206.872 E14.75699
G1 X96.476 Y209.333 E14.86871
G1 X86.712 Y220.232 E15.3554
G1 X86.241 Y220.744 E15.37854
G1 X85.577 Y221.407 E15.40975
G1 X84.859 Y222.01 E15.44093
G1 X84.092 Y222.551 E15.47215
G1 X83.282 Y223.024 E15.50335
G1 X82.435 Y223.426 E15.53453
G1 X81.557 Y223.755 E15.56572
G1 X80.654 Y224.007 E15.5969
G1 X79.732 Y224.182 E15.62811
G1 X78.799 Y224.278 E15.65931
G1 X77.861 Y224.293 E15.69051
G1 X76.926 Y224.229 E15.72168
G1 X75.999 Y224.086 E15.75288
G1 X75.088 Y223.864 E15.78406
G1 X74.199 Y223.565 E15.81526
G1 X73.338 Y223.191 E15.84648
G1 X72.513 Y222.746 E15.87766
G1 X71.729 Y222.232 E15.90884
G1 X70.991 Y221.653 E15.94004
G1 X70.305 Y221.013 E15.97124
G1 X69.676 Y220.317 E16.00244
G1 X69.109 Y219.57 E16.03364
G1 X68.608 Y218.778 E16.06481
G1 X68.175 Y217.945 E16.09603
G1 X67.816 Y217.079 E16.12721
G1 X67.644 Y216.574 E16.14495
G1 X67.419 Y215.853 E16.17008
G1 X11.654 Y26.955 E22.7209
G1 X11.428 Y26.154 E22.74858
G1 X11.213 Y25.242 E22.77975
G1 X11.077 Y24.314 E22.81094
G1 X11.02 Y23.377 E22.84217
G1 X11.043 Y22.44 E22.87334
G1 X11.146 Y21.508 E22.90453
G1 X11.328 Y20.588 E22.93572
G1 X11.587 Y19.686 E22.96693
G1 X11.923 Y18.811 E22.99811
G1 X12.331 Y17.966 E23.02932
G1 X12.811 Y17.16 E23.06052
G1 X13.357 Y16.398 E23.0917
G1 X13.966 Y15.685 E23.12289
G1 X14.634 Y15.026 E23.1541
G0 F6000 X15.066 Y15.177
G1 F1200 X15.787 Y14.604 E23.18473
G1 X16.555 Y14.095 E23.21537
G1 X17.364 Y13.656 E23.24598
G1 X18.207 Y13.288 E23.27658
G1 X19.08 Y12.994 E23.30722
G1 X19.975 Y12.778 E23.33784
G1 X20.885 Y12.64 E23.36845
G1 X21.804 Y12.581 E23.39908
G1 X22.724 Y12.603 E23.42969
G1 X23.733 Y12.719 E23.46347
G1 X24.51 Y12.847 E23.48966
G1 X93.558 Y25.222 E25.8228
G1 X94.266 Y25.359 E25.84678
G1 X95.161 Y25.573 E25.87739
G1 X96.035 Y25.864 E25.90803
G1 X96.88 Y26.23 E25.93866
G1 X97.69 Y26.667 E25.96927
G1 X98.37 Y27.11 E25.99626
G1 X99.314 Y27.777 E26.03471
G1 X101.515 Y29.287 E26.12348
G1 X103.614 Y30.642 E26.20658
G1 X105.801 Y31.966 E26.29161
G1 X107.972 Y33.2 E26.37467
G1 X110.217 Y34.392 E26.45921
G1 X112.478 Y35.512 E26.54313
G1 X114.777 Y36.57 E26.6273
G1 X117.119 Y37.571 E26.71202
G1 X119.479 Y38.501 E26.79638
G1 X121.826 Y39.347 E26.87936
G1 X124.24 Y40.143 E26.9639
G1 X126.652 Y40.863 E27.04763
G1 X129.09 Y41.517 E27.13158
G1 X131.591 Y42.112 E27.21709
G1 X134.066 Y42.629 E27.30118
G1 X136.486 Y43.06 E27.38294
G1 X139.047 Y43.444 E27.46907
G1 X141.537 Y43.746 E27.55249
G1 X144.062 Y43.979 E27.63683
G1 X146.576 Y44.14 E27.72062
G1 X149.086 Y44.23 E27.80416
G1 X151.633 Y44.249 E27.88887
G1 X154.17 Y44.196 E27.97327
G1 X156.702 Y44.071 E28.05759
G1 X159.18 Y43.879 E28.14026
G1 X161.728 Y43.608 E28.22548
G1 X164.221 Y43.272 E28.30915
G1 X166.73 Y42.861 E28.39371
G1 X169.218 Y42.381 E28.47799
G1 X171.656 Y41.839 E28.56105
G1 X174.24 Y41.187 E28.64969
G1 X175.32 Y40.899 E28.68687
G1 X176.219 Y40.701 E28.71749
G1 X177.132 Y40.582 E28.74811
G1 X178.051 Y40.542 E28.7787
G1 X178.971 Y40.582 E28.80933
G1 X179.763 Y40.682 E28.83588
G1 X180.563 Y40.814 E28.86285
G1 X218.479 Y47.61 E30.14404
G1 X219.147 Y47.74 E30.16667
G1 X220.042 Y47.955 E30.19729
G1 X220.915 Y48.247 E30.22791
G1 X221.76 Y48.613 E30.25853
G1 X222.569 Y49.052 E30.28915
G1 X223.338 Y49.559 E30.31978
G1 X224.059 Y50.131 E30.35039
G1 X224.729 Y50.763 E30.38103
G1 X225.341 Y51.451 E30.41165
G1 X225.891 Y52.189 E30.44227
G1 X226.374 Y52.972 E30.47287
G1 X226.788 Y53.795 E30.50351
G1 X227.129 Y54.65 E30.53412
G1 X227.395 Y55.531 E30.56473
G1 X227.583 Y56.433 E30.59538
G1 X227.692 Y57.347 E30.62599
G1 X227.721 Y58.267 E30.65661
G1 X227.671 Y59.186 E30.68722
G1 X227.541 Y60.098 E30.71786
G1 X227.332 Y60.994 E30.74846
G1 X227.046 Y61.87 E30.77911
G1 X226.685 Y62.717 E30.80973
G1 X226.253 Y63.529 E30.84032
G1 X225.751 Y64.301 E30.87095
G1 X225.13 Y65.089 E30.90432
G1 X224.521 Y65.791 E30.93523
G1 X221.528 Y69.132 E31.08442
G1 X219.846 Y71.063 E31.1696
G1 X218.244 Y73.011 E31.25348
G1 X216.686 Y75.019 E31.33801
G1 X215.197 Y77.057 E31.42196
G1 X213.759 Y79.144 E31.50626
G1 X212.4 Y81.238 E31.58929
G1 X211.065 Y83.433 E31.67474
G1 X209.821 Y85.614 E31.75825
G1 X208.626 Y87.852 E31.84263
G1 X207.509 Y90.097 E31.92603
G1 X206.435 Y92.419 E32.01112
G1 X205.448 Y94.721 E32.09443
G1 X204.509 Y97.088 E32.17912
G1 X203.66 Y99.423 E32.26176
G1 X202.842 Y101.888 E32.34814
G1 X202.129 Y104.263 E32.43062
G1 X201.462 Y106.729 E32.51558
G1 X200.873 Y109.179 E32.59939
G1 X200.351 Y111.671 E32.68408
G1 X199.908 Y114.116 E32.76672
G1 X199.524 Y116.646 E32.85183
G1 X199.22 Y119.12 E32.93474
G1 X198.887 Y122.899 E33.06091
G1 X198.811 Y124.009 E33.09792
G1 X198.688 Y125.051 E33.13282
G1 X198.643 Y125.318 E33.14182
G1 X198.351 Y126.575 E33.18474
G1 X198.31 Y126.713 E33.18953
G1 X198.01 Y127.583 E33.22014
G1 X197.635 Y128.424 E33.25077
G1 X197.127 Y129.329 E33.28529
G1 X196.527 Y130.285 E33.32283
G1 X196.422 Y130.449 E33.3293
G1 X195.973 Y131.135 E33.35657
G1 X194.651 Y133.288 E33.4406
G1 X193.385 Y135.485 E33.52494
G1 X192.178 Y137.726 E33.6096
G1 X191.055 Y139.958 E33.6927
G1 X189.971 Y142.275 E33.77778
G1 X188.975 Y144.571 E33.86102
G1 X188.026 Y146.937 E33.94581
G1 X187.162 Y149.282 E34.02893
G1 X186.348 Y151.7 E34.11379
G1 X185.603 Y154.141 E34.19867
G1 X184.942 Y156.548 E34.2817
G1 X184.336 Y159.019 E34.36632
G1 X183.81 Y161.481 E34.45005
G1 X183.345 Y163.989 E34.53489
G1 X183.106 Y165.46 E34.58446
G1 X182.924 Y166.64 E34.62417
G1 X182.745 Y167.543 E34.65479
G1 X182.487 Y168.427 E34.68541
G1 X182.154 Y169.285 E34.71603
G1 X181.754 Y170.101 E34.74625
G1 X181.694 Y170.211 E34.75042
G1 X181.218 Y170.999 E34.78104
G1 X180.676 Y171.743 E34.81165
G1 X180.071 Y172.437 E34.84228
G1 X179.409 Y173.077 E34.8729
G1 X178.693 Y173.656 E34.90353
G1 X177.93 Y174.171 E34.93415
G1 X177.125 Y174.618 E34.96477
G1 X176.284 Y174.993 E34.9954
G1 X175.414 Y175.294 E35.02602
G1 X174.521 Y175.518 E35.05664
G1 X173.438 Y175.683 E35.09307
G1 X173.227 Y175.704 E35.10013
G1 X172.329 Y175.755 E35.13004
G1 X171.873 Y175.759 E35.14521
G1 X171.205 Y175.753 E35.16743
G1 X168.928 Y175.746 E35.24316
G1 X166.384 Y175.809 E35.3278
G1 X163.876 Y175.942 E35.41134
G1 X161.36 Y176.147 E35.49529
G1 X158.824 Y176.426 E35.58015
G1 X156.327 Y176.772 E35.664
G1 X153.842 Y177.188 E35.7478
G1 X151.35 Y177.679 E35.83227
G1 X148.892 Y178.236 E35.9161
G1 X146.435 Y178.866 E36.00046
G1 X144.018 Y179.559 E36.08409
G1 X141.577 Y180.334 E36.16928
G1 X139.22 Y181.156 E36.2523
G1 X136.877 Y182.049 E36.3357
G1 X134.503 Y183.031 E36.42115
G1 X132.218 Y184.054 E36.50441
G1 X129.926 Y185.157 E36.58901
G1 X127.506 Y186.411 E36.67967
G1 X126.858 Y186.759 E36.70413
G1 X126.317 Y187.03 E36.72426
G1 X125.155 Y187.572 E36.7669
G1 X122.775 Y188.722 E36.85482
G1 X120.533 Y189.885 E36.93882
G1 X118.329 Y191.11 E37.02269
G1 X116.153 Y192.4 E37.10683
G1 X114.011 Y193.754 E37.19111
G1 X111.903 Y195.171 E37.27559
G1 X109.871 Y196.622 E37.35864
G1 X107.843 Y198.159 E37.44327
G1 X105.866 Y199.746 E37.52759
G1 X103.945 Y201.38 E37.61147
G1 X102.066 Y203.073 E37.69559
G1 X100.249 Y204.804 E37.77906
G1 X98.453 Y206.617 E37.86394
G1 X96.193 Y209.048 E37.97434
G1 X86.417 Y219.961 E38.46165
G1 X85.946 Y220.473 E38.48479
G1 X85.294 Y221.123 E38.51541
G1 X84.588 Y221.714 E38.54603
G1 X83.833 Y222.241 E38.57665
G1 X83.036 Y222.701 E38.60726
G1 X82.201 Y223.09 E38.6379
G1 X81.336 Y223.405 E38.66852
G1 X80.447 Y223.644 E38.69914
G1 X79.54 Y223.805 E38.72977
G1 X78.623 Y223.886 E38.76039
G1 X77.703 Y223.888 E38.79099
G1 X76.785 Y223.809 E38.82164
G1 X75.878 Y223.652 E38.85225
G1 X74.988 Y223.416 E38.88288
G1 X74.122 Y223.104 E38.91349
G1 X73.287 Y222.718 E38.94409
G1 X72.487 Y222.261 E38.97473
G1 X71.731 Y221.736 E39.00535
G1 X71.023 Y221.148 E39.03596
G1 X70.368 Y220.5 E39.0666
G1 X69.773 Y219.798 E39.09721
G1 X69.24 Y219.047 E39.12784
G1 X68.775 Y218.253 E39.15844
G1 X68.38 Y217.421 E39.18907
G1 X68.026 Y216.455 E39.22329
G1 X67.801 Y215.734 E39.24841
G1 X11.999 Y26.708 E45.80367
G1 X11.813 Y26.046 E45.82654
G1 X11.603 Y25.15 E45.85715
G1 X11.471 Y24.239 E45.88777
G1 X11.419 Y23.32 E45.91838
G1 X11.447 Y22.399 E45.94903
G1 X11.554 Y21.485 E45.97964
G1 X11.741 Y20.583 E46.01028
G1 X12.005 Y19.701 E46.0409
G1 X12.344 Y18.846 E46.07149
G1 X12.757 Y18.023 E46.10212
G1 X13.239 Y17.238 E46.13275
G1 X13.788 Y16.499 E46.16337
G1 X14.398 Y15.81 E46.19398
G1 X15.066 Y15.177 E46.22459
G0 F6000 X15.499 Y15.334
G1 F1200 X16.219 Y14.788 E46.25464
G1 X16.984 Y14.308 E46.28468
G1 X17.788 Y13.897 E46.31471
G1 X18.626 Y13.56 E46.34475
G1 X19.49 Y13.297 E46.37479
G1 X20.374 Y13.112 E46.40483
G1 X21.271 Y13.006 E46.43487
G1 X22.173 Y12.98 E46.46489
G1 X23.075 Y13.034 E46.49494
G1 X23.669 Y13.113 E46.51487
G1 X24.439 Y13.241 E46.54083
G1 X93.482 Y25.615 E48.8738
G1 X94.19 Y25.752 E48.89779
G1 X95.068 Y25.962 E48.92781
G1 X95.924 Y26.25 E48.95785
G1 X96.751 Y26.612 E48.98788
G1 X97.543 Y27.046 E49.01792
G1 X98.139 Y27.436 E49.04161
G1 X99.111 Y28.123 E49.08119
G1 X101.294 Y29.621 E49.16925
G1 X103.396 Y30.977 E49.25245
G1 X105.591 Y32.306 E49.33779
G1 X107.792 Y33.557 E49.422
G1 X110.045 Y34.754 E49.50685
G1 X112.284 Y35.863 E49.58996
G1 X114.632 Y36.943 E49.67592
G1 X116.964 Y37.939 E49.76026
G1 X119.323 Y38.87 E49.84461
G1 X121.714 Y39.731 E49.92913
G1 X124.106 Y40.52 E50.01291
G1 X126.548 Y41.249 E50.09767
G1 X129.031 Y41.915 E50.18317
G1 X131.453 Y42.491 E50.26598
G1 X133.979 Y43.019 E50.35181
G1 X136.469 Y43.462 E50.43593
G1 X138.972 Y43.838 E50.52011
G1 X141.488 Y44.143 E50.6044
G1 X144.033 Y44.378 E50.68941
G1 X146.574 Y44.541 E50.7741
G1 X149.068 Y44.63 E50.8571
G1 X151.638 Y44.649 E50.94258
G1 X154.162 Y44.596 E51.02655
