;FLAVOR:Marlin
;TIME:1416
;Filament used: 1.0182m
;Layer height: 0.2
;MINX:90.5
;MINY:86
;MINZ:0.2
;MAXX:144.5
;MAXY:149
;MAXZ:2.8
;Generated with Cura_SteamEngine master
M140 S50
M105
M190 S50
M104 S200
M105
M109 S200
M82 ;absolute extrusion mode
; Ender 3 Custom Start G-code
G92 E0 ; Reset Extruder
G28 ; Home all axes
G1 Z2.0 F3000 ; Move Z Axis up little to prevent scratching of Heat Bed
G1 X0.1 Y20 Z0.3 F5000.0 ; Move to start position
G1 X0.1 Y200.0 Z0.3 F1500.0 E15 ; Draw the first line
G1 X0.4 Y200.0 Z0.3 F5000.0 ; Move to side a little
G1 X0.4 Y20 Z0.3 F1500.0 E30 ; Draw the second line
G92 E0 ; Reset Extruder
G1 Z2.0 F3000 ; Move Z Axis up little to prevent scratching of Heat Bed
G1 X5 Y20 Z0.3 F5000.0 ; Move over to prevent blob squish
G92 E0
G92 E0
G1 F2700 E-5
;LAYER_COUNT:14
;LAYER:0
M107
G0 F6000 X93.698 Y89.264 Z0.2
;TYPE:SKIRT
G1 F2700 E0
G1 F1200 X94.386 Y88.627 E0.03119
G1 X95.126 Y88.051 E0.06237
G1 X95.912 Y87.539 E0.09357
G1 X96.739 Y87.097 E0.12476
G1 X97.601 Y86.727 E0.15596
G1 X98.491 Y86.431 E0.18716
G1 X99.403 Y86.213 E0.21835
G1 X100.33 Y86.072 E0.24953
G1 X101.201 Y86.013 E0.27857
G1 X101.522 Y86.004 E0.28925
G1 X101.83 Y86 E0.29949
G1 X132.793 Y86 E1.32933
G1 X133.649 Y86.011 E1.3578
G1 X134.585 Y86.065 E1.38898
G1 X135.513 Y86.197 E1.42016
G1 X136.427 Y86.409 E1.45137
G1 X137.319 Y86.698 E1.48255
G1 X138.184 Y87.061 E1.51375
G1 X139.014 Y87.497 E1.54494
G1 X139.805 Y88.002 E1.57615
G1 X140.549 Y88.573 E1.60734
G1 X141.242 Y89.205 E1.63854
G1 X141.879 Y89.893 E1.66972
G1 X142.454 Y90.634 E1.70092
G1 X142.965 Y91.42 E1.7321
G1 X143.407 Y92.248 E1.76332
G1 X143.776 Y93.11 E1.79451
G1 X144.071 Y94 E1.82569
G1 X144.289 Y94.912 E1.85688
G1 X144.429 Y95.84 E1.88809
G1 X144.487 Y96.701 E1.91679
G1 X144.496 Y97.021 E1.92744
G1 X144.5 Y97.33 E1.93772
G1 X144.499 Y137.4 E3.27045
G1 X144.49 Y138.127 E3.29464
G1 X144.439 Y139.064 E3.32585
G1 X144.307 Y139.992 E3.35702
G1 X144.098 Y140.906 E3.38821
G1 X143.811 Y141.799 E3.4194
G1 X143.449 Y142.665 E3.45062
G1 X143.015 Y143.496 E3.4818
G1 X142.511 Y144.287 E3.513
G1 X141.942 Y145.032 E3.54418
G1 X141.311 Y145.727 E3.5754
G1 X140.624 Y146.365 E3.60658
G1 X139.885 Y146.942 E3.63777
G1 X139.099 Y147.454 E3.66897
G1 X138.273 Y147.897 E3.70014
G1 X137.411 Y148.269 E3.73137
G1 X136.522 Y148.565 E3.76253
G1 X135.61 Y148.785 E3.79374
G1 X134.683 Y148.926 E3.82492
G1 X133.799 Y148.987 E3.8544
G1 X133.478 Y148.996 E3.86508
G1 X133.17 Y149 E3.87532
G1 X102.065 Y148.999 E4.90988
G1 X101.367 Y148.99 E4.93309
G1 X100.431 Y148.938 E4.96427
G1 X99.502 Y148.806 E4.99548
G1 X98.588 Y148.596 E5.02668
G1 X97.695 Y148.309 E5.05787
G1 X96.83 Y147.946 E5.08907
G1 X95.999 Y147.512 E5.12025
G1 X95.208 Y147.008 E5.15145
G1 X94.463 Y146.438 E5.18265
G1 X93.769 Y145.807 E5.21385
G1 X93.132 Y145.12 E5.24501
G1 X92.555 Y144.38 E5.27622
G1 X92.043 Y143.594 E5.30742
G1 X91.6 Y142.767 E5.33862
G1 X91.229 Y141.906 E5.3698
G1 X90.933 Y141.016 E5.401
G1 X90.714 Y140.104 E5.43219
G1 X90.573 Y139.177 E5.46338
G1 X90.513 Y138.288 E5.49302
G1 X90.504 Y137.955 E5.5041
G1 X90.5 Y137.658 E5.51398
G1 X90.501 Y97.525 E6.84881
G1 X90.51 Y96.86 E6.87093
G1 X90.563 Y95.924 E6.90211
G1 X90.695 Y94.995 E6.93332
G1 X90.906 Y94.081 E6.96451
G1 X91.194 Y93.189 E6.99569
G1 X91.557 Y92.324 E7.02689
G1 X91.992 Y91.493 E7.05809
G1 X92.496 Y90.703 E7.08926
G1 X93.066 Y89.958 E7.12046
G1 X93.698 Y89.264 E7.15167
G0 F6000 X94.089 Y89.439
G1 F1200 X94.774 Y88.823 E7.18232
G1 X95.51 Y88.27 E7.21293
G1 X96.291 Y87.782 E7.24356
G1 X97.111 Y87.364 E7.27418
G1 X97.965 Y87.019 E7.30481
G1 X98.845 Y86.749 E7.33543
G1 X99.745 Y86.557 E7.36603
G1 X100.659 Y86.443 E7.39667
G1 X101.212 Y86.413 E7.41509
G1 X101.533 Y86.404 E7.42577
G1 X101.83 Y86.4 E7.43565
G1 X132.793 Y86.4 E8.46548
G1 X133.643 Y86.411 E8.49376
G1 X134.562 Y86.464 E8.52437
G1 X135.473 Y86.597 E8.555
G1 X136.369 Y86.808 E8.58561
G1 X137.243 Y87.096 E8.61622
G1 X138.09 Y87.459 E8.64687
G1 X138.901 Y87.894 E8.67748
G1 X139.671 Y88.398 E8.70809
G1 X140.395 Y88.967 E8.73871
G1 X141.067 Y89.597 E8.76935
G1 X141.682 Y90.282 E8.79997
G1 X142.235 Y91.018 E8.83059
G1 X142.722 Y91.799 E8.8612
G1 X143.139 Y92.62 E8.89183
G1 X143.484 Y93.474 E8.92246
G1 X143.753 Y94.354 E8.95307
G1 X143.945 Y95.255 E8.98371
G1 X144.058 Y96.168 E9.01431
G1 X144.087 Y96.712 E9.03242
G1 X144.096 Y97.032 E9.04307
G1 X144.1 Y97.33 E9.05298
G1 X144.099 Y137.395 E10.38555
G1 X144.09 Y138.122 E10.40973
G1 X144.039 Y139.041 E10.44035
G1 X143.908 Y139.953 E10.47099
G1 X143.698 Y140.849 E10.5016
G1 X143.412 Y141.724 E10.53222
G1 X143.051 Y142.571 E10.56284
G1 X142.617 Y143.383 E10.59346
G1 X142.115 Y144.155 E10.62409
G1 X141.547 Y144.88 E10.65472
G1 X140.919 Y145.553 E10.68534
G1 X140.235 Y146.169 E10.71596
G1 X139.5 Y146.723 E10.74657
G1 X138.72 Y147.212 E10.77719
G1 X137.9 Y147.631 E10.80782
G1 X137.047 Y147.977 E10.83843
G1 X136.167 Y148.248 E10.86906
G1 X135.267 Y148.441 E10.89967
G1 X134.353 Y148.556 E10.93031
G1 X133.788 Y148.587 E10.94913
G1 X133.467 Y148.596 E10.95981
G1 X133.17 Y148.6 E10.96969
G1 X102.07 Y148.599 E12.00408
G1 X101.372 Y148.59 E12.0273
G1 X100.453 Y148.538 E12.05791
G1 X99.542 Y148.407 E12.08853
G1 X98.646 Y148.197 E12.11913
G1 X97.771 Y147.91 E12.14976
G1 X96.924 Y147.548 E12.1804
G1 X96.112 Y147.114 E12.21102
G1 X95.341 Y146.612 E12.24162
G1 X94.616 Y146.044 E12.27225
G1 X93.943 Y145.415 E12.30289
G1 X93.328 Y144.731 E12.33349
G1 X92.774 Y143.996 E12.3641
G1 X92.286 Y143.215 E12.39473
G1 X91.867 Y142.395 E12.42536
G1 X91.521 Y141.542 E12.45597
G1 X91.251 Y140.662 E12.48659
G1 X91.058 Y139.761 E12.51724
G1 X90.944 Y138.848 E12.54784
G1 X90.913 Y138.277 E12.56686
G1 X90.904 Y137.944 E12.57794
G1 X90.9 Y137.658 E12.58745
G1 X90.901 Y97.531 E13.92208
G1 X90.91 Y96.866 E13.9442
G1 X90.962 Y95.946 E13.97485
G1 X91.094 Y95.035 E14.00547
G1 X91.305 Y94.139 E14.03608
G1 X91.592 Y93.264 E14.06671
G1 X91.955 Y92.418 E14.09733
G1 X92.389 Y91.606 E14.12795
G1 X92.892 Y90.835 E14.15857
G1 X93.461 Y90.111 E14.1892
G1 X94.089 Y89.439 E14.21979
G0 F6000 X94.481 Y89.617
G1 F1200 X95.162 Y89.024 E14.24982
G1 X95.894 Y88.494 E14.27988
G1 X96.669 Y88.031 E14.30991
G1 X97.482 Y87.638 E14.33994
G1 X98.327 Y87.318 E14.36999
G1 X99.196 Y87.075 E14.4
G1 X100.084 Y86.909 E14.43005
G1 X101.223 Y86.813 E14.46807
G1 X101.544 Y86.804 E14.47875
G1 X101.83 Y86.8 E14.48826
G1 X132.793 Y86.8 E15.5181
G1 X133.637 Y86.811 E15.54617
G1 X134.539 Y86.864 E15.57622
G1 X135.432 Y86.996 E15.60625
G1 X136.31 Y87.207 E15.63628
G1 X137.166 Y87.495 E15.66632
G1 X137.993 Y87.857 E15.69635
G1 X138.785 Y88.292 E15.7264
G1 X139.536 Y88.794 E15.75644
G1 X140.239 Y89.361 E15.78648
G1 X140.889 Y89.988 E15.81652
G1 X141.481 Y90.67 E15.84656
G1 X142.011 Y91.401 E15.87659
G1 X142.473 Y92.177 E15.90663
G1 X142.866 Y92.99 E15.93666
G1 X143.184 Y93.835 E15.96669
G1 X143.427 Y94.705 E15.99673
G1 X143.592 Y95.593 E16.02678
G1 X143.687 Y96.723 E16.06449
G1 X143.696 Y97.043 E16.07514
G1 X143.7 Y97.33 E16.08469
G1 X143.699 Y137.39 E17.41709
G1 X143.69 Y138.117 E17.44127
G1 X143.639 Y139.019 E17.47132
G1 X143.508 Y139.913 E17.50137
G1 X143.299 Y140.791 E17.53139
G1 X143.013 Y141.648 E17.56144
G1 X142.652 Y142.476 E17.59148
G1 X142.22 Y143.268 E17.62149
G1 X141.719 Y144.02 E17.65154
G1 X141.153 Y144.724 E17.68158
G1 X140.528 Y145.375 E17.7116
G1 X139.847 Y145.969 E17.74166
G1 X139.116 Y146.5 E17.77171
G1 X138.342 Y146.964 E17.80172
G1 X137.529 Y147.358 E17.83177
G1 X136.685 Y147.678 E17.86179
G1 X135.815 Y147.923 E17.89185
G1 X134.928 Y148.089 E17.92187
G1 X133.777 Y148.187 E17.96029
G1 X133.456 Y148.196 E17.97097
G1 X133.17 Y148.2 E17.98048
G1 X102.075 Y148.199 E19.01471
G1 X101.377 Y148.19 E19.03792
G1 X100.476 Y148.139 E19.06794
G1 X99.582 Y148.007 E19.098
G1 X98.704 Y147.798 E19.12801
G1 X97.847 Y147.511 E19.15807
G1 X97.02 Y147.15 E19.18809
G1 X96.227 Y146.717 E19.21814
G1 X95.476 Y146.216 E19.24816
G1 X94.772 Y145.65 E19.27821
G1 X94.121 Y145.024 E19.30825
G1 X93.528 Y144.343 E19.33828
G1 X92.998 Y143.612 E19.36831
G1 X92.534 Y142.837 E19.39836
G1 X92.14 Y142.024 E19.4284
G1 X91.82 Y141.18 E19.45843
G1 X91.576 Y140.31 E19.48848
G1 X91.41 Y139.422 E19.51853
G1 X91.313 Y138.267 E19.55708
G1 X91.304 Y137.934 E19.56816
G1 X91.3 Y137.658 E19.57734
G1 X91.301 Y97.536 E20.9118
G1 X91.31 Y96.871 E20.93392
G1 X91.362 Y95.969 E20.96397
G1 X91.494 Y95.076 E20.99399
G1 X91.704 Y94.198 E21.02402
G1 X91.991 Y93.341 E21.05408
G1 X92.353 Y92.514 E21.08411
G1 X92.786 Y91.722 E21.11413
G1 X93.288 Y90.971 E21.14417
G1 X93.855 Y90.267 E21.17424
G1 X94.481 Y89.617 E21.20425
G1 F2700 E16.20425
;MESH:kitchen-patch.stl
G0 F6000 X101.92 Y96.335
G0 X101.92 Y97.42
G0 X102.282 Y137.218
G0 X132.9 Y137.4
;TYPE:WALL-INNER
G1 F2700 E21.20425
G1 F1200 X102.1 Y137.4 E22.22866
G1 X102.1 Y97.6 E23.55242
G1 X132.9 Y97.6 E24.57683
G1 X132.9 Y137.4 E25.90058
G0 F6000 X133.3 Y137.8
;TYPE:WALL-OUTER
G1 F1200 X101.7 Y137.8 E26.9516
G1 X101.7 Y97.2 E28.30197
G1 X133.3 Y97.2 E29.35299
G1 X133.3 Y137.8 E30.70335
G0 F6000 X133.03 Y137.53
G0 X132.79 Y137.01
G0 X132.51 Y137.01
;TYPE:SKIN
G1 F1200 X102.49 Y137.01 E31.70182
G1 X102.49 Y97.99 E32.99963
G1 X132.51 Y97.99 E33.9981
G1 X132.51 Y137.01 E35.29591
G1 F2700 E30.29591
G0 F6000 X132.79 Y137.01
G0 X102.908 Y137.29
G1 F2700 E35.29591
G0 F6000 X102.908 Y136.849
G1 F1200 X102.649 Y136.59 E35.30809
G0 F6000 X102.649 Y136.024
G1 F1200 X103.473 Y136.849 E35.34687
G0 F6000 X104.039 Y136.849
G1 F1200 X102.649 Y135.459 E35.41225
G0 F6000 X102.649 Y134.893
G1 F1200 X104.605 Y136.849 E35.50426
G0 F6000 X105.17 Y136.849
G1 F1200 X102.649 Y134.327 E35.62286
G0 F6000 X102.649 Y133.761
G1 F1200 X105.736 Y136.849 E35.76809
G0 F6000 X106.302 Y136.849
G1 F1200 X102.649 Y133.196 E35.93991
G0 F6000 X102.649 Y132.63
G1 F1200 X106.867 Y136.849 E36.13834
G0 F6000 X107.433 Y136.849
G1 F1200 X102.649 Y132.064 E36.36339
G0 F6000 X102.649 Y131.499
G1 F1200 X107.999 Y136.849 E36.61503
G0 F6000 X108.564 Y136.849
G1 F1200 X102.649 Y130.933 E36.89328
G0 F6000 X102.649 Y130.367
G1 F1200 X109.13 Y136.849 E37.19815
G0 F6000 X109.696 Y136.849
G1 F1200 X102.649 Y129.802 E37.52962
G0 F6000 X102.649 Y129.236
G1 F1200 X110.261 Y136.849 E37.88769
G0 F6000 X110.827 Y136.849
G1 F1200 X102.649 Y128.67 E38.27238
G0 F6000 X102.649 Y128.105
G1 F1200 X111.393 Y136.849 E38.68367
G0 F6000 X111.959 Y136.849
G1 F1200 X102.649 Y127.539 E39.12158
G0 F6000 X102.649 Y126.973
G1 F1200 X112.524 Y136.849 E39.5861
G0 F6000 X113.09 Y136.849
G1 F1200 X102.649 Y126.408 E40.07721
G0 F6000 X102.649 Y125.842
G1 F1200 X113.656 Y136.849 E40.59495
G0 F6000 X114.221 Y136.849
G1 F1200 X102.649 Y125.276 E41.13928
G0 F6000 X102.649 Y124.711
G1 F1200 X114.787 Y136.849 E41.71022
G0 F6000 X115.353 Y136.849
G1 F1200 X102.649 Y124.145 E42.30777
G0 F6000 X102.649 Y123.579
G1 F1200 X115.918 Y136.849 E42.93193
G0 F6000 X116.484 Y136.849
G1 F1200 X102.649 Y123.013 E43.58271
G0 F6000 X102.649 Y122.448
G1 F1200 X117.05 Y136.849 E44.26009
G0 F6000 X117.615 Y136.849
G1 F1200 X102.649 Y121.882 E44.96407
G0 F6000 X102.649 Y121.316
G1 F1200 X118.181 Y136.849 E45.69467
G0 F6000 X118.747 Y136.849
G1 F1200 X102.649 Y120.751 E46.45187
G0 F6000 X102.649 Y120.185
G1 F1200 X119.312 Y136.849 E47.23567
G0 F6000 X119.878 Y136.849
G1 F1200 X102.649 Y119.619 E48.04609
G0 F6000 X102.649 Y119.054
G1 F1200 X120.444 Y136.849 E48.88311
G0 F6000 X121.01 Y136.849
G1 F1200 X102.649 Y118.488 E49.74676
G0 F6000 X102.649 Y117.922
G1 F1200 X121.575 Y136.849 E50.637
G0 F6000 X122.141 Y136.849
G1 F1200 X102.649 Y117.357 E51.55385
G0 F6000 X102.649 Y116.791
G1 F1200 X122.707 Y136.849 E52.49731
G0 F6000 X123.272 Y136.849
G1 F1200 X102.649 Y116.225 E53.46738
G0 F6000 X102.649 Y115.66
G1 F1200 X123.838 Y136.849 E54.46404
G0 F6000 X124.404 Y136.849
G1 F1200 X102.649 Y115.094 E55.48733
G0 F6000 X102.649 Y114.528
G1 F1200 X124.969 Y136.849 E56.53722
G0 F6000 X125.535 Y136.849
G1 F1200 X102.649 Y113.962 E57.61373
G0 F6000 X102.649 Y113.397
G1 F1200 X126.101 Y136.849 E58.71684
G0 F6000 X126.666 Y136.849
G1 F1200 X102.649 Y112.831 E59.84655
G0 F6000 X102.649 Y112.265
G1 F1200 X127.232 Y136.849 E61.00288
G0 F6000 X127.798 Y136.849
G1 F1200 X102.649 Y111.7 E62.18582
G0 F6000 X102.649 Y111.134
G1 F1200 X128.363 Y136.849 E63.39535
G0 F6000 X128.929 Y136.849
G1 F1200 X102.649 Y110.568 E64.6315
G0 F6000 X102.649 Y110.003
G1 F1200 X129.495 Y136.849 E65.89426
G0 F6000 X130.06 Y136.849
G1 F1200 X102.649 Y109.437 E67.18361
G0 F6000 X102.649 Y108.871
G1 F1200 X130.626 Y136.849 E68.49958
G0 F6000 X131.192 Y136.849
G1 F1200 X102.649 Y108.306 E69.84216
G0 F6000 X102.649 Y107.74
G1 F1200 X131.758 Y136.849 E71.21136
G0 F6000 X132.323 Y136.849
G1 F1200 X102.649 Y107.174 E72.60715
G0 F6000 X102.649 Y106.609
G1 F1200 X132.35 Y136.31 E74.0042
G0 F6000 X132.35 Y135.744
G1 F1200 X102.649 Y106.043 E75.40124
G0 F6000 X102.649 Y105.477
G1 F1200 X132.35 Y135.179 E76.79831
G0 F6000 X132.35 Y134.613
G1 F1200 X102.649 Y104.912 E78.19535
G0 F6000 X102.649 Y104.346
G1 F1200 X132.35 Y134.047 E79.5924
G0 F6000 X132.35 Y133.481
G1 F1200 X102.649 Y103.78 E80.98944
G0 F6000 X102.649 Y103.214
G1 F1200 X132.35 Y132.916 E82.38651
G0 F6000 X132.35 Y132.35
G1 F1200 X102.649 Y102.649 E83.78355
G0 F6000 X102.649 Y102.083
G1 F1200 X132.35 Y131.784 E85.1806
G0 F6000 X132.35 Y131.219
G1 F1200 X102.649 Y101.517 E86.57766
G0 F6000 X102.649 Y100.952
G1 F1200 X132.35 Y130.653 E87.97471
G0 F6000 X132.35 Y130.087
G1 F1200 X102.649 Y100.386 E89.37175
G0 F6000 X102.649 Y99.82
G1 F1200 X132.35 Y129.522 E90.76882
G0 F6000 X132.35 Y128.956
G1 F1200 X102.649 Y99.255 E92.16586
G0 F6000 X102.649 Y98.689
G1 F1200 X132.35 Y128.39 E93.56291
G0 F6000 X132.35 Y127.825
G1 F1200 X102.676 Y98.15 E94.95871
G0 F6000 X103.241 Y98.15
G1 F1200 X132.35 Y127.259 E96.3279
G0 F6000 X132.35 Y126.693
G1 F1200 X103.807 Y98.15 E97.67048
G0 F6000 X104.373 Y98.15
G1 F1200 X132.35 Y126.128 E98.98646
G0 F6000 X132.35 Y125.562
G1 F1200 X104.938 Y98.15 E100.27583
G0 F6000 X105.504 Y98.15
G1 F1200 X132.35 Y124.996 E101.53859
G0 F6000 X132.35 Y124.43
G1 F1200 X106.07 Y98.15 E102.77472
G0 F6000 X106.635 Y98.15
G1 F1200 X132.35 Y123.865 E103.98427
G0 F6000 X132.35 Y123.299
G1 F1200 X107.201 Y98.15 E105.1672
G0 F6000 X107.767 Y98.15
G1 F1200 X132.35 Y122.733 E106.32351
G0 F6000 X132.35 Y122.168
G1 F1200 X108.333 Y98.15 E107.45322
G0 F6000 X108.898 Y98.15
G1 F1200 X132.35 Y121.602 E108.55633
G0 F6000 X132.35 Y121.036
G1 F1200 X109.464 Y98.15 E109.63282
G0 F6000 X110.03 Y98.15
G1 F1200 X132.35 Y120.471 E110.68271
G0 F6000 X132.35 Y119.905
G1 F1200 X110.595 Y98.15 E111.70599
G0 F6000 X111.161 Y98.15
G1 F1200 X132.35 Y119.339 E112.70266
G0 F6000 X132.35 Y118.774
G1 F1200 X111.727 Y98.15 E113.67273
G0 F6000 X112.292 Y98.15
G1 F1200 X132.35 Y118.208 E114.61619
G0 F6000 X132.35 Y117.642
G1 F1200 X112.858 Y98.15 E115.53304
G0 F6000 X113.424 Y98.15
G1 F1200 X132.35 Y117.077 E116.42328
G0 F6000 X132.35 Y116.511
G1 F1200 X113.989 Y98.15 E117.28693
G0 F6000 X114.555 Y98.15
G1 F1200 X132.35 Y115.945 E118.12395
G0 F6000 X132.35 Y115.38
G1 F1200 X115.121 Y98.15 E118.93437
G0 F6000 X115.686 Y98.15
G1 F1200 X132.35 Y114.814 E119.7182
G0 F6000 X132.35 Y114.248
G1 F1200 X116.252 Y98.15 E120.4754
G0 F6000 X116.818 Y98.15
G1 F1200 X132.35 Y113.682 E121.20597
G0 F6000 X132.35 Y113.117
G1 F1200 X117.383 Y98.15 E121.90998
G0 F6000 X117.949 Y98.15
G1 F1200 X132.35 Y112.551 E122.58735
G0 F6000 X132.35 Y111.985
G1 F1200 X118.515 Y98.15 E123.23811
G0 F6000 X119.081 Y98.15
G1 F1200 X132.35 Y111.42 E123.86227
G0 F6000 X132.35 Y110.854
G1 F1200 X119.646 Y98.15 E124.45982
G0 F6000 X120.212 Y98.15
G1 F1200 X132.35 Y110.288 E125.03076
G0 F6000 X132.35 Y109.723
G1 F1200 X120.778 Y98.15 E125.57509
G0 F6000 X121.343 Y98.15
G1 F1200 X132.35 Y109.157 E126.09283
G0 F6000 X132.35 Y108.591
G1 F1200 X121.909 Y98.15 E126.58394
G0 F6000 X122.475 Y98.15
G1 F1200 X132.35 Y108.026 E127.04845
G0 F6000 X132.35 Y107.46
G1 F1200 X123.04 Y98.15 E127.48637
G0 F6000 X123.606 Y98.15
G1 F1200 X132.35 Y106.894 E127.89766
G0 F6000 X132.35 Y106.329
G1 F1200 X124.172 Y98.15 E128.28235
G0 F6000 X124.737 Y98.15
G1 F1200 X132.35 Y105.763 E128.64044
