;FLAVOR:Marlin
;TIME:1533
;Filament used: 0.442338m
;Layer height: 0.12
;MINX:75.601
;MINY:97.9
;MINZ:0.12
;MAXX:159.299
;MAXY:137.099
;MAXZ:10.2
;Generated with Cura_SteamEngine master
M140 S50
M105
M190 S50
M104 S200
M105
M109 S200
M82 ;absolute extrusion mode
; Ender 3 Custom Start G-code
G92 E0 ; Reset Extruder
G28 ; Home all axes
G1 Z2.0 F3000 ; Move Z Axis up little to prevent scratching of Heat Bed
G1 X0.1 Y20 Z0.3 F5000.0 ; Move to start position
G1 X0.1 Y200.0 Z0.3 F1500.0 E15 ; Draw the first line
G1 X0.4 Y200.0 Z0.3 F5000.0 ; Move to side a little
G1 X0.4 Y20 Z0.3 F1500.0 E30 ; Draw the second line
G92 E0 ; Reset Extruder
G1 Z2.0 F3000 ; Move Z Axis up little to prevent scratching of Heat Bed
G1 X5 Y20 Z0.3 F5000.0 ; Move over to prevent blob squish
G92 E0
G92 E0
G1 F2700 E-5
;LAYER_COUNT:85
;LAYER:0
M107
G0 F6000 X80.882 Y100.755 Z0.12
;TYPE:SKIRT
G1 F2700 E0
G1 F1200 X81.065 Y100.616 E0.00459
G1 X81.959 Y100.004 E0.02621
G1 X82.221 Y99.843 E0.03234
G1 X83.339 Y99.242 E0.05767
G1 X83.599 Y99.121 E0.0634
G1 X84.715 Y98.674 E0.08739
G1 X84.981 Y98.584 E0.09299
G1 X86.084 Y98.274 E0.11586
G1 X86.341 Y98.216 E0.12111
G1 X87.451 Y98.025 E0.14359
G1 X87.709 Y97.994 E0.14878
G1 X88.616 Y97.922 E0.16693
G1 X88.86 Y97.913 E0.17181
G1 X89.141 Y97.907 E0.17741
G1 X89.701 Y97.901 E0.18859
G1 X91.692 Y97.901 E0.22832
G1 X92.37 Y97.911 E0.24186
G1 X92.979 Y97.937 E0.25402
G1 X94.204 Y98.023 E0.27853
G1 X96.822 Y98.17 E0.33085
G1 X99.343 Y98.241 E0.38118
G1 X101.867 Y98.239 E0.43155
G1 X104.357 Y98.168 E0.48126
G1 X106.918 Y98.022 E0.53245
G1 X108.004 Y97.938 E0.55419
G1 X108.134 Y97.93 E0.55679
G1 X108.501 Y97.913 E0.56412
G1 X108.821 Y97.904 E0.57051
G1 X109.13 Y97.9 E0.57668
G1 X111.493 Y97.9 E0.62383
G1 X112.355 Y97.911 E0.64104
G1 X112.814 Y97.927 E0.6502
G1 X115.407 Y98.072 E0.70203
G1 X117.949 Y98.144 E0.75278
G1 X120.437 Y98.144 E0.80243
G1 X123.02 Y98.071 E0.85399
G1 X124.316 Y98.005 E0.87989
G1 X125.662 Y97.928 E0.9068
G1 X125.967 Y97.915 E0.91289
G1 X126.303 Y97.905 E0.9196
G1 X126.63 Y97.9 E0.92612
G1 X129.649 Y97.901 E0.98637
G1 X130.355 Y97.911 E1.00046
G1 X130.814 Y97.927 E1.00963
G1 X133.407 Y98.072 E1.06145
G1 X135.949 Y98.144 E1.1122
G1 X138.437 Y98.144 E1.16185
G1 X141.018 Y98.071 E1.21338
G1 X142.323 Y98.005 E1.23946
G1 X143.662 Y97.928 E1.26622
G1 X143.954 Y97.915 E1.27205
G1 X144.245 Y97.906 E1.27786
G1 X144.585 Y97.901 E1.28465
G1 X145.208 Y97.902 E1.29708
G1 X145.946 Y97.912 E1.31181
G1 X146.641 Y97.943 E1.32569
G1 X146.719 Y97.949 E1.32726
G1 X147.445 Y98.03 E1.34183
G1 X147.653 Y98.06 E1.34603
G1 X148.091 Y98.132 E1.35489
G1 X148.398 Y98.189 E1.36112
G1 X149.661 Y98.502 E1.38708
G1 X149.844 Y98.559 E1.39091
G1 X151.135 Y99.052 E1.41849
G1 X151.497 Y99.217 E1.42643
G1 X152.333 Y99.642 E1.44514
G1 X152.829 Y99.938 E1.45667
G1 X152.985 Y100.037 E1.46036
G1 X153.395 Y100.31 E1.47019
G1 X153.671 Y100.503 E1.47691
G1 X154.416 Y101.073 E1.49563
G1 X154.941 Y101.541 E1.50966
G1 X155.179 Y101.767 E1.51621
G1 X156.085 Y102.737 E1.5427
G1 X156.261 Y102.95 E1.54821
G1 X156.947 Y103.875 E1.57119
G1 X157.091 Y104.092 E1.57639
G1 X157.65 Y105.033 E1.59823
G1 X157.779 Y105.277 E1.60374
G1 X158.244 Y106.275 E1.62571
G1 X158.331 Y106.489 E1.63032
G1 X158.711 Y107.586 E1.65349
G1 X158.796 Y107.881 E1.65962
G1 X159.038 Y108.9 E1.68052
G1 X159.071 Y109.076 E1.68409
G1 X159.18 Y109.788 E1.69847
G1 X159.206 Y110.004 E1.70281
G1 X159.278 Y110.915 E1.72105
G1 X159.287 Y111.16 E1.72594
G1 X159.293 Y111.438 E1.73149
G1 X159.299 Y112 E1.7427
G1 X159.299 Y123.013 E1.96248
G1 X159.291 Y123.565 E1.9735
G1 X159.279 Y123.949 E1.98116
G1 X159.259 Y124.354 E1.98926
G1 X159.109 Y125.697 E2.01622
G1 X159.062 Y125.967 E2.02169
G1 X158.808 Y127.08 E2.04447
G1 X158.738 Y127.327 E2.0496
G1 X158.377 Y128.392 E2.07204
G1 X158.276 Y128.646 E2.07749
G1 X157.822 Y129.639 E2.09928
G1 X157.749 Y129.78 E2.10245
G1 X157.288 Y130.587 E2.121
G1 X157.179 Y130.76 E2.12508
G1 X156.873 Y131.22 E2.1361
G1 X156.684 Y131.489 E2.14266
G1 X155.849 Y132.535 E2.16937
G1 X155.71 Y132.689 E2.17351
G1 X155.024 Y133.385 E2.19302
G1 X154.845 Y133.551 E2.19789
G1 X154.018 Y134.245 E2.21943
G1 X153.835 Y134.384 E2.22402
G1 X152.969 Y134.978 E2.24498
G1 X152.712 Y135.137 E2.25101
G1 X151.577 Y135.751 E2.27676
G1 X151.322 Y135.87 E2.28237
G1 X150.216 Y136.315 E2.30616
G1 X149.94 Y136.409 E2.31198
G1 X148.816 Y136.726 E2.33529
G1 X148.559 Y136.784 E2.34055
G1 X147.449 Y136.975 E2.36302
G1 X147.191 Y137.006 E2.36821
G1 X146.286 Y137.077 E2.38633
G1 X146.043 Y137.086 E2.39118
G1 X145.762 Y137.093 E2.39679
G1 X145.201 Y137.099 E2.40798
G1 X89.68 Y137.099 E3.51596
G1 X89.14 Y137.091 E3.52674
G1 X88.773 Y137.079 E3.53407
G1 X88.358 Y137.059 E3.54236
G1 X87.424 Y136.974 E3.56108
G1 X86.956 Y136.901 E3.57053
G1 X86.687 Y136.853 E3.57598
G1 X85.631 Y136.61 E3.59761
G1 X85.383 Y136.54 E3.60275
G1 X84.306 Y136.175 E3.62544
G1 X84.047 Y136.072 E3.63101
G1 X83.053 Y135.618 E3.65281
G1 X82.914 Y135.546 E3.65594
G1 X82.074 Y135.064 E3.67526
G1 X81.904 Y134.956 E3.67928
G1 X81.495 Y134.683 E3.6891
G1 X81.225 Y134.494 E3.69567
G1 X80.48 Y133.923 E3.7144
G1 X80.123 Y133.612 E3.72385
G1 X79.965 Y133.468 E3.72812
G1 X79.301 Y132.809 E3.74679
G1 X79.14 Y132.635 E3.75152
G1 X78.441 Y131.8 E3.77325
G1 X78.295 Y131.607 E3.77808
G1 X77.668 Y130.684 E3.80035
G1 X77.51 Y130.424 E3.80642
G1 X76.93 Y129.336 E3.83102
G1 X76.816 Y129.09 E3.83643
G1 X76.38 Y128.001 E3.85984
G1 X76.288 Y127.73 E3.86555
G1 X75.974 Y126.616 E3.88865
G1 X75.916 Y126.359 E3.89391
G1 X75.725 Y125.249 E3.91639
G1 X75.694 Y124.991 E3.92157
G1 X75.623 Y124.086 E3.93969
G1 X75.614 Y123.843 E3.94454
G1 X75.607 Y123.553 E3.95033
G1 X75.601 Y122.965 E3.96206
G1 X75.601 Y111.987 E4.18114
G1 X75.609 Y111.435 E4.19216
G1 X75.621 Y111.051 E4.19983
G1 X75.641 Y110.646 E4.20792
G1 X75.798 Y109.264 E4.23567
G1 X75.846 Y108.994 E4.24115
G1 X76.09 Y107.931 E4.26291
G1 X76.16 Y107.683 E4.26806
G1 X76.522 Y106.613 E4.2906
G1 X76.624 Y106.356 E4.29611
G1 X77.081 Y105.355 E4.31807
G1 X77.153 Y105.216 E4.3212
G1 X77.629 Y104.387 E4.34027
G1 X77.738 Y104.215 E4.34434
G1 X78.007 Y103.811 E4.35402
G1 X78.196 Y103.54 E4.36062
G1 X79.06 Y102.453 E4.38833
G1 X79.202 Y102.296 E4.39255
G1 X79.938 Y101.557 E4.41337
G1 X80.113 Y101.397 E4.4181
G1 X80.882 Y100.755 E4.43809
G0 F6000 X81.123 Y101.074
G1 F1200 X81.306 Y100.935 E4.44268
G1 X82.168 Y100.345 E4.46352
G1 X82.43 Y100.184 E4.46966
G1 X83.508 Y99.605 E4.49408
G1 X83.768 Y99.484 E4.4998
G1 X84.843 Y99.053 E4.52291
G1 X85.109 Y98.963 E4.52852
G1 X86.172 Y98.664 E4.55055
G1 X86.429 Y98.606 E4.55581
G1 X87.498 Y98.422 E4.57746
G1 X87.756 Y98.391 E4.58264
G1 X88.63 Y98.322 E4.60014
G1 X88.874 Y98.313 E4.60501
G1 X89.145 Y98.307 E4.61042
G1 X89.701 Y98.301 E4.62152
G1 X91.686 Y98.301 E4.66113
G1 X92.364 Y98.311 E4.67466
G1 X92.951 Y98.336 E4.68639
G1 X94.223 Y98.425 E4.71183
G1 X96.789 Y98.57 E4.76312
G1 X99.332 Y98.641 E4.81389
G1 X101.844 Y98.639 E4.86402
G1 X104.389 Y98.566 E4.91483
G1 X106.976 Y98.419 E4.96654
G1 X108.029 Y98.337 E4.98762
G1 X108.159 Y98.329 E4.99022
G1 X108.512 Y98.313 E4.99727
G1 X108.832 Y98.304 E5.00366
G1 X109.13 Y98.3 E5.0096
G1 X111.493 Y98.3 E5.05676
G1 X112.349 Y98.311 E5.07384
G1 X112.791 Y98.327 E5.08267
G1 X115.372 Y98.471 E5.13426
G1 X117.938 Y98.544 E5.18548
G1 X120.448 Y98.544 E5.23557
G1 X123.006 Y98.472 E5.28664
G1 X124.405 Y98.402 E5.3146
G1 X125.685 Y98.328 E5.34018
G1 X125.979 Y98.315 E5.34605
G1 X126.315 Y98.305 E5.35276
G1 X126.63 Y98.3 E5.35905
G1 X129.643 Y98.301 E5.41918
G1 X130.349 Y98.311 E5.43327
G1 X130.791 Y98.327 E5.44209
G1 X133.372 Y98.471 E5.49368
G1 X135.938 Y98.544 E5.54491
G1 X138.448 Y98.544 E5.595
G1 X141.005 Y98.472 E5.64605
G1 X142.404 Y98.402 E5.674
G1 X143.685 Y98.328 E5.69961
G1 X143.966 Y98.315 E5.70522
G1 X144.257 Y98.306 E5.71103
G1 X144.585 Y98.301 E5.71758
G1 X145.203 Y98.302 E5.72991
G1 X145.941 Y98.312 E5.74464
G1 X146.61 Y98.342 E5.758
G1 X146.688 Y98.348 E5.75956
G1 X147.388 Y98.426 E5.77362
G1 X147.596 Y98.456 E5.77781
G1 X148.018 Y98.525 E5.78635
G1 X148.325 Y98.582 E5.79258
G1 X149.542 Y98.884 E5.8176
G1 X149.725 Y98.941 E5.82143
G1 X150.969 Y99.416 E5.848
G1 X151.331 Y99.581 E5.85594
G1 X152.152 Y99.999 E5.87432
G1 X152.615 Y100.276 E5.88509
G1 X152.771 Y100.375 E5.88878
G1 X153.165 Y100.638 E5.89823
G1 X153.441 Y100.831 E5.90495
G1 X154.172 Y101.391 E5.92333
G1 X154.666 Y101.831 E5.93653
G1 X154.904 Y102.057 E5.94308
G1 X155.776 Y102.992 E5.96859
G1 X155.952 Y103.205 E5.97411
G1 X156.613 Y104.096 E5.99625
G1 X156.757 Y104.313 E6.00145
G1 X157.296 Y105.22 E6.0225
G1 X157.425 Y105.464 E6.02801
G1 X157.874 Y106.426 E6.04919
G1 X157.961 Y106.64 E6.0538
G1 X158.327 Y107.697 E6.07613
G1 X158.412 Y107.992 E6.08225
G1 X158.644 Y108.974 E6.10239
G1 X158.677 Y109.15 E6.10596
G1 X158.783 Y109.836 E6.11982
G1 X158.809 Y110.052 E6.12416
G1 X158.878 Y110.93 E6.14173
G1 X158.887 Y111.175 E6.14662
G1 X158.893 Y111.443 E6.15197
G1 X158.899 Y112 E6.16309
G1 X158.899 Y123.008 E6.38277
G1 X158.891 Y123.56 E6.39378
G1 X158.879 Y123.929 E6.40115
G1 X158.859 Y124.334 E6.40924
G1 X158.715 Y125.629 E6.43525
G1 X158.668 Y125.899 E6.44072
G1 X158.423 Y126.971 E6.46266
G1 X158.353 Y127.218 E6.46778
G1 X158.005 Y128.245 E6.48942
G1 X157.904 Y128.499 E6.49488
G1 X157.467 Y129.456 E6.51587
G1 X157.394 Y129.597 E6.51904
G1 X156.949 Y130.374 E6.53691
G1 X156.84 Y130.547 E6.54099
G1 X156.545 Y130.99 E6.55161
G1 X156.356 Y131.259 E6.55817
G1 X155.552 Y132.267 E6.5839
G1 X155.413 Y132.421 E6.58804
G1 X154.752 Y133.091 E6.60683
G1 X154.573 Y133.257 E6.6117
G1 X153.777 Y133.926 E6.63245
G1 X153.594 Y134.065 E6.63703
G1 X152.759 Y134.638 E6.65724
G1 X152.502 Y134.797 E6.66327
G1 X151.408 Y135.389 E6.6881
G1 X151.153 Y135.508 E6.69371
G1 X150.087 Y135.936 E6.71664
G1 X149.811 Y136.03 E6.72246
G1 X148.728 Y136.336 E6.74491
G1 X148.471 Y136.394 E6.75017
G1 X147.402 Y136.578 E6.77182
G1 X147.144 Y136.609 E6.777
G1 X146.271 Y136.678 E6.79448
G1 X146.028 Y136.687 E6.79933
G1 X145.758 Y136.693 E6.80472
G1 X145.201 Y136.699 E6.81584
G1 X89.686 Y136.699 E7.9237
G1 X89.146 Y136.691 E7.93448
G1 X88.793 Y136.68 E7.94153
G1 X88.378 Y136.66 E7.94982
G1 X87.026 Y136.507 E7.97697
G1 X86.757 Y136.459 E7.98242
G1 X85.74 Y136.225 E8.00325
G1 X85.492 Y136.155 E8.00839
G1 X84.454 Y135.804 E8.03026
G1 X84.195 Y135.701 E8.03582
G1 X83.237 Y135.263 E8.05684
G1 X83.098 Y135.191 E8.05996
G1 X82.289 Y134.726 E8.07859
G1 X82.119 Y134.618 E8.08261
G1 X81.724 Y134.355 E8.09208
G1 X81.454 Y134.166 E8.09865
G1 X80.393 Y133.316 E8.12578
G1 X80.235 Y133.172 E8.13005
G1 X79.595 Y132.537 E8.14804
G1 X79.434 Y132.363 E8.15277
G1 X78.76 Y131.559 E8.17371
G1 X78.614 Y131.366 E8.17854
G1 X78.009 Y130.476 E8.20001
G1 X77.851 Y130.216 E8.20609
G1 X77.293 Y129.168 E8.22978
G1 X77.179 Y128.922 E8.23519
G1 X76.759 Y127.873 E8.25774
G1 X76.667 Y127.602 E8.26345
G1 X76.364 Y126.528 E8.28572
G1 X76.306 Y126.271 E8.29098
G1 X76.122 Y125.202 E8.31262
G1 X76.091 Y124.944 E8.31781
G1 X76.022 Y124.071 E8.33529
G1 X76.013 Y123.828 E8.34014
G1 X76.007 Y123.548 E8.34573
G1 X76.001 Y122.965 E8.35736
G1 X76.001 Y111.992 E8.57634
G1 X76.009 Y111.44 E8.58736
G1 X76.021 Y111.071 E8.59473
G1 X76.041 Y110.666 E8.60282
G1 X76.192 Y109.334 E8.62957
G1 X76.24 Y109.064 E8.63504
G1 X76.475 Y108.04 E8.65601
G1 X76.545 Y107.792 E8.66115
G1 X76.894 Y106.761 E8.68287
G1 X76.996 Y106.504 E8.68839
G1 X77.436 Y105.539 E8.70955
G1 X77.508 Y105.4 E8.71268
G1 X77.966 Y104.601 E8.73106
G1 X78.075 Y104.429 E8.73512
G1 X78.335 Y104.039 E8.74447
G1 X78.524 Y103.768 E8.75107
G1 X79.357 Y102.722 E8.77775
G1 X79.499 Y102.565 E8.78198
G1 X80.207 Y101.852 E8.80203
G1 X80.382 Y101.692 E8.80676
G1 X81.123 Y101.074 E8.82602
G0 F6000 X81.365 Y101.392
G1 F1200 X81.548 Y101.253 E8.8306
G1 X82.378 Y100.686 E8.85066
G1 X82.64 Y100.525 E8.8568
G1 X83.676 Y99.967 E8.88028
G1 X83.936 Y99.846 E8.886
G1 X84.971 Y99.432 E8.90825
G1 X85.237 Y99.342 E8.91385
G1 X86.261 Y99.054 E8.93508
G1 X86.518 Y98.996 E8.94034
G1 X87.546 Y98.819 E8.96116
G1 X87.804 Y98.788 E8.96634
G1 X88.645 Y98.722 E8.98318
G1 X88.889 Y98.713 E8.98805
G1 X89.15 Y98.707 E8.99326
G1 X89.701 Y98.701 E9.00426
G1 X91.68 Y98.701 E9.04375
G1 X92.358 Y98.711 E9.05728
G1 X92.923 Y98.735 E9.06857
G1 X94.175 Y98.823 E9.09361
G1 X96.79 Y98.97 E9.14588
G1 X99.321 Y99.041 E9.19641
G1 X101.855 Y99.039 E9.24698
G1 X104.424 Y98.966 E9.29827
G1 X106.936 Y98.822 E9.34848
G1 X108.053 Y98.736 E9.37083
G1 X108.183 Y98.728 E9.37343
G1 X108.523 Y98.713 E9.38023
G1 X108.843 Y98.704 E9.38661
G1 X109.13 Y98.7 E9.39234
G1 X111.493 Y98.7 E9.4395
G1 X112.343 Y98.711 E9.45646
G1 X112.769 Y98.726 E9.46497
G1 X115.376 Y98.872 E9.51708
G1 X117.926 Y98.944 E9.56798
G1 X120.459 Y98.944 E9.61853
G1 X123.038 Y98.871 E9.67002
G1 X124.405 Y98.802 E9.69733
G1 X125.708 Y98.727 E9.72338
G1 X125.991 Y98.715 E9.72903
G1 X126.327 Y98.705 E9.73574
G1 X126.63 Y98.7 E9.74179
G1 X129.637 Y98.701 E9.8018
G1 X130.343 Y98.711 E9.81589
G1 X130.769 Y98.726 E9.82439
G1 X133.376 Y98.872 E9.8765
G1 X135.926 Y98.944 E9.92741
G1 X138.459 Y98.944 E9.97796
G1 X141.039 Y98.871 E10.02946
G1 X142.405 Y98.802 E10.05676
G1 X143.708 Y98.727 E10.08281
G1 X143.979 Y98.715 E10.08822
G1 X144.27 Y98.706 E10.09403
G1 X144.585 Y98.701 E10.10032
G1 X145.197 Y98.702 E10.11253
G1 X145.935 Y98.712 E10.12726
G1 X146.579 Y98.741 E10.14012
G1 X146.657 Y98.747 E10.14168
G1 X147.331 Y98.821 E10.15522
G1 X147.539 Y98.851 E10.15941
G1 X147.945 Y98.918 E10.16762
G1 X148.252 Y98.975 E10.17385
G1 X149.423 Y99.265 E10.19793
G1 X149.606 Y99.322 E10.20175
G1 X150.803 Y99.78 E10.22733
G1 X151.165 Y99.945 E10.23527
G1 X151.97 Y100.355 E10.2533
G1 X152.4 Y100.614 E10.26331
G1 X152.556 Y100.713 E10.267
G1 X152.936 Y100.966 E10.27611
G1 X153.212 Y101.159 E10.28283
G1 X153.929 Y101.709 E10.30086
G1 X154.391 Y102.121 E10.31322
G1 X154.629 Y102.347 E10.31977
G1 X155.468 Y103.247 E10.34432
G1 X155.644 Y103.46 E10.34984
G1 X156.28 Y104.317 E10.37113
G1 X156.424 Y104.534 E10.37633
G1 X156.942 Y105.407 E10.39659
G1 X157.071 Y105.651 E10.4021
G1 X157.503 Y106.577 E10.42249
G1 X157.59 Y106.791 E10.4271
G1 X157.942 Y107.808 E10.44857
G1 X158.027 Y108.103 E10.4547
G1 X158.251 Y109.047 E10.47406
G1 X158.284 Y109.223 E10.47764
G1 X158.386 Y109.884 E10.49098
G1 X158.412 Y110.1 E10.49532
G1 X158.478 Y110.945 E10.51224
G1 X158.487 Y111.19 E10.51713
G1 X158.493 Y111.447 E10.52226
G1 X158.499 Y112 E10.5333
G1 X158.499 Y123.002 E10.75285
G1 X158.491 Y123.554 E10.76387
G1 X158.48 Y123.909 E10.77096
G1 X158.46 Y124.314 E10.77905
G1 X158.321 Y125.56 E10.80407
G1 X158.274 Y125.83 E10.80954
G1 X158.039 Y126.862 E10.83066
G1 X157.969 Y127.109 E10.83578
G1 X157.633 Y128.097 E10.85661
G1 X157.532 Y128.351 E10.86207
G1 X157.112 Y129.272 E10.88227
G1 X157.039 Y129.413 E10.88543
G1 X156.611 Y130.16 E10.90261
G1 X156.502 Y130.333 E10.9067
G1 X156.218 Y130.76 E10.91693
G1 X156.029 Y131.029 E10.92349
G1 X155.255 Y131.999 E10.94825
G1 X155.116 Y132.153 E10.95239
G1 X154.48 Y132.798 E10.97047
G1 X154.301 Y132.964 E10.97534
G1 X153.535 Y133.608 E10.99531
G1 X153.352 Y133.747 E10.9999
G1 X152.548 Y134.298 E11.01935
G1 X152.291 Y134.457 E11.02538
G1 X151.238 Y135.026 E11.04927
G1 X150.983 Y135.145 E11.05488
G1 X149.958 Y135.557 E11.07693
G1 X149.682 Y135.651 E11.08275
G1 X148.639 Y135.946 E11.10438
G1 X148.382 Y136.004 E11.10964
G1 X147.354 Y136.181 E11.13045
G1 X147.096 Y136.212 E11.13564
G1 X146.257 Y136.278 E11.15243
G1 X146.014 Y136.287 E11.15729
G1 X145.753 Y136.293 E11.1625
G1 X145.201 Y136.299 E11.17351
G1 X89.692 Y136.299 E12.28125
G1 X89.152 Y136.291 E12.29203
G1 X88.812 Y136.28 E12.29882
G1 X88.397 Y136.26 E12.30711
G1 X87.096 Y136.113 E12.33324
G1 X86.827 Y136.065 E12.33869
G1 X85.848 Y135.84 E12.35874
G1 X85.6 Y135.77 E12.36388
G1 X84.602 Y135.432 E12.38491
G1 X84.343 Y135.329 E12.39047
G1 X83.421 Y134.908 E12.4107
G1 X83.282 Y134.836 E12.41382
G1 X82.503 Y134.389 E12.43175
G1 X82.333 Y134.281 E12.43576
G1 X81.954 Y134.027 E12.44487
G1 X81.684 Y133.838 E12.45145
G1 X80.662 Y133.021 E12.47756
G1 X80.504 Y132.877 E12.48182
G1 X79.888 Y132.265 E12.49915
G1 X79.727 Y132.091 E12.50388
