;FLAVOR:Marlin
;TIME:1143
;Filament used: 0.609185m
;Layer height: 0.2
;MINX:96
;MINY:97.5
;MINZ:0.2
;MAXX:139
;MAXY:137.5
;MAXZ:14.2
;Generated with Cura_SteamEngine master
M140 S50
M105
M190 S50
M104 S200
M105
M109 S200
M82 ;absolute extrusion mode
; Ender 3 Custom Start G-code
G92 E0 ; Reset Extruder
G28 ; Home all axes
G1 Z2.0 F3000 ; Move Z Axis up little to prevent scratching of Heat Bed
G1 X0.1 Y20 Z0.3 F5000.0 ; Move to start position
G1 X0.1 Y200.0 Z0.3 F1500.0 E15 ; Draw the first line
G1 X0.4 Y200.0 Z0.3 F5000.0 ; Move to side a little
G1 X0.4 Y20 Z0.3 F1500.0 E30 ; Draw the second line
G92 E0 ; Reset Extruder
G1 Z2.0 F3000 ; Move Z Axis up little to prevent scratching of Heat Bed
G1 X5 Y20 Z0.3 F5000.0 ; Move over to prevent blob squish
G92 E0
G92 E0
G1 F2700 E-5
;LAYER_COUNT:99
;LAYER:0
M107
G0 F6000 X99.873 Y101.259 Z0.2
;TYPE:SKIRT
G1 F2700 E0
G1 F1200 X100.362 Y100.807 E0.02215
G1 X100.608 Y100.593 E0.03299
G1 X101.342 Y100.008 E0.06421
G1 X101.801 Y99.69 E0.08278
G1 X101.972 Y99.578 E0.08958
G1 X103.038 Y98.962 E0.13053
G1 X103.228 Y98.866 E0.13761
G1 X104.243 Y98.416 E0.17454
G1 X104.459 Y98.333 E0.18224
G1 X105.348 Y98.034 E0.21343
G1 X105.853 Y97.901 E0.2308
G1 X106.113 Y97.839 E0.23969
G1 X107.322 Y97.621 E0.28055
G1 X107.509 Y97.598 E0.28682
G1 X108.428 Y97.524 E0.31748
G1 X108.687 Y97.514 E0.3261
G1 X108.972 Y97.507 E0.33559
G1 X109.585 Y97.5 E0.35598
G1 X120.293 Y97.5 E0.71212
G1 X121.169 Y97.512 E0.74126
G1 X122.105 Y97.567 E0.77245
G1 X123.033 Y97.701 E0.80363
G1 X123.947 Y97.914 E0.83485
G1 X124.839 Y98.204 E0.86604
G1 X125.703 Y98.568 E0.89723
G1 X126.533 Y99.005 E0.92843
G1 X127.322 Y99.511 E0.9596
G1 X128.066 Y100.083 E0.99081
G1 X128.758 Y100.716 E1.02201
G1 X129.143 Y101.119 E1.04055
G1 X129.828 Y101.875 E1.07448
G1 X130.467 Y102.6 E1.10662
G1 X132.179 Y104.437 E1.19014
G1 X133.94 Y106.218 E1.27344
G1 X135.428 Y107.644 E1.34199
G1 X135.773 Y107.99 E1.35824
G1 X135.944 Y108.169 E1.36647
G1 X136.562 Y108.874 E1.39766
G1 X137.118 Y109.629 E1.42884
G1 X137.608 Y110.429 E1.46005
G1 X138.028 Y111.268 E1.49125
G1 X138.374 Y112.139 E1.52242
G1 X138.646 Y113.037 E1.55363
G1 X138.84 Y113.954 E1.58481
G1 X138.955 Y114.885 E1.61601
G1 X138.984 Y115.396 E1.63303
G1 X138.994 Y115.781 E1.64584
G1 X139 Y116.324 E1.6639
G1 X138.999 Y118.661 E1.74163
G1 X138.989 Y119.386 E1.76575
G1 X138.936 Y120.322 E1.79693
G1 X138.804 Y121.251 E1.82814
G1 X138.592 Y122.164 E1.85931
G1 X138.304 Y123.057 E1.89052
G1 X137.941 Y123.922 E1.92172
G1 X137.506 Y124.752 E1.95289
G1 X137.001 Y125.543 E1.9841
G1 X136.431 Y126.287 E2.01527
G1 X136.044 Y126.726 E2.03474
G1 X135.617 Y127.165 E2.05511
G1 X134.583 Y128.168 E2.10302
G1 X134.196 Y128.535 E2.12076
G1 X132.379 Y130.36 E2.20641
G1 X130.665 Y132.179 E2.28954
G1 X129.44 Y133.543 E2.35052
G1 X129.242 Y133.768 E2.36049
G1 X128.592 Y134.444 E2.39168
G1 X127.887 Y135.063 E2.42288
G1 X127.132 Y135.619 E2.45407
G1 X126.332 Y136.108 E2.48525
G1 X125.493 Y136.528 E2.51646
G1 X124.622 Y136.875 E2.54764
G1 X123.724 Y137.147 E2.57885
G1 X122.807 Y137.34 E2.61002
G1 X121.876 Y137.456 E2.64122
G1 X121.299 Y137.487 E2.66044
G1 X120.976 Y137.496 E2.67119
G1 X120.67 Y137.5 E2.68137
G1 X109.55 Y137.499 E3.05122
G1 X108.778 Y137.488 E3.0769
G1 X107.953 Y137.445 E3.10438
G1 X107.741 Y137.426 E3.11146
G1 X106.548 Y137.253 E3.15155
G1 X106.32 Y137.207 E3.15929
G1 X105.409 Y136.982 E3.1905
G1 X104.903 Y136.821 E3.20816
G1 X104.602 Y136.717 E3.21875
G1 X103.729 Y136.373 E3.24996
G1 X102.99 Y136.011 E3.27733
G1 X102.733 Y135.873 E3.28703
G1 X101.927 Y135.395 E3.3182
G1 X101.274 Y134.935 E3.34476
G1 X101.006 Y134.731 E3.35597
G1 X100.285 Y134.131 E3.38716
G1 X99.891 Y133.756 E3.40526
G1 X99.748 Y133.613 E3.41198
G1 X99.029 Y132.82 E3.44758
G1 X98.895 Y132.657 E3.4546
G1 X98.167 Y131.663 E3.49558
G1 X98.054 Y131.489 E3.50248
G1 X97.46 Y130.457 E3.54209
G1 X97.359 Y130.257 E3.54954
G1 X96.887 Y129.182 E3.58859
G1 X96.81 Y128.978 E3.59584
G1 X96.516 Y128.088 E3.62702
G1 X96.398 Y127.631 E3.64271
G1 X96.334 Y127.361 E3.65194
G1 X96.115 Y126.135 E3.69336
G1 X96.094 Y125.96 E3.69923
G1 X96.024 Y125.075 E3.72875
G1 X96.014 Y124.817 E3.73734
G1 X96.007 Y124.529 E3.74692
G1 X96 Y123.914 E3.76738
G1 X96.001 Y121.883 E3.83493
G1 X96.02 Y120.639 E3.87631
G1 X96.073 Y118.727 E3.93993
G1 X96.073 Y116.209 E4.02368
G1 X96.01 Y113.878 E4.10124
G1 X96 Y113.052 E4.12871
G1 X96.001 Y111.05 E4.1953
G1 X96.012 Y110.277 E4.22101
G1 X96.055 Y109.447 E4.24865
G1 X96.074 Y109.236 E4.2557
G1 X96.247 Y108.048 E4.29563
G1 X96.293 Y107.82 E4.30337
G1 X96.518 Y106.909 E4.33458
G1 X96.679 Y106.403 E4.35224
G1 X96.783 Y106.102 E4.36283
G1 X97.127 Y105.229 E4.39404
G1 X97.385 Y104.689 E4.41394
G1 X97.478 Y104.507 E4.42074
G1 X98.046 Y103.524 E4.4585
G1 X98.168 Y103.336 E4.46596
G1 X98.711 Y102.572 E4.49713
G1 X99.046 Y102.162 E4.51474
G1 X99.233 Y101.944 E4.52429
G1 X99.873 Y101.259 E4.55547
G0 F6000 X100.166 Y101.532
G1 F1200 X100.625 Y101.109 E4.57623
G1 X100.871 Y100.895 E4.58708
G1 X101.591 Y100.321 E4.6177
G1 X102.02 Y100.025 E4.63504
G1 X102.191 Y99.913 E4.64184
G1 X103.219 Y99.319 E4.68133
G1 X103.409 Y99.223 E4.68841
G1 X104.387 Y98.789 E4.724
G1 X104.603 Y98.706 E4.73169
G1 X105.476 Y98.414 E4.76231
G1 X105.946 Y98.29 E4.77848
G1 X106.206 Y98.228 E4.78737
G1 X107.371 Y98.018 E4.82674
G1 X107.558 Y97.995 E4.83301
G1 X108.443 Y97.924 E4.86254
G1 X108.702 Y97.914 E4.87116
G1 X108.977 Y97.907 E4.88031
G1 X109.585 Y97.9 E4.90053
G1 X120.293 Y97.9 E5.25668
G1 X121.163 Y97.912 E5.28562
G1 X122.082 Y97.967 E5.31624
G1 X122.993 Y98.101 E5.34686
G1 X123.888 Y98.313 E5.37746
G1 X124.762 Y98.602 E5.40807
G1 X125.608 Y98.966 E5.43871
G1 X126.419 Y99.402 E5.46933
G1 X127.189 Y99.907 E5.49996
G1 X127.912 Y100.477 E5.53058
G1 X128.847 Y101.388 E5.574
G1 X129.425 Y102.025 E5.60261
G1 X130.156 Y102.854 E5.63937
G1 X131.885 Y104.708 E5.72368
G1 X133.643 Y106.488 E5.80689
G1 X135.152 Y107.933 E5.87638
G1 X135.484 Y108.266 E5.89202
G1 X135.655 Y108.445 E5.90026
G1 X136.261 Y109.138 E5.93088
G1 X136.805 Y109.88 E5.96148
G1 X137.283 Y110.667 E5.9921
G1 X137.69 Y111.493 E6.02273
G1 X138.024 Y112.351 E6.05335
G1 X138.283 Y113.234 E6.08396
G1 X138.464 Y114.137 E6.11459
G1 X138.584 Y115.409 E6.15709
G1 X138.594 Y115.785 E6.1696
G1 X138.6 Y116.324 E6.18752
G1 X138.599 Y118.655 E6.26505
G1 X138.589 Y119.38 E6.28917
G1 X138.536 Y120.299 E6.31979
G1 X138.404 Y121.21 E6.3504
G1 X138.193 Y122.107 E6.38105
G1 X137.906 Y122.981 E6.41165
G1 X137.543 Y123.827 E6.44227
G1 X137.108 Y124.639 E6.47291
G1 X136.605 Y125.41 E6.50352
G1 X135.751 Y126.454 E6.54839
G1 X135.338 Y126.878 E6.56807
G1 X134.308 Y127.878 E6.61582
G1 X133.885 Y128.278 E6.63518
G1 X132.123 Y130.049 E6.71827
G1 X130.359 Y131.921 E6.80382
G1 X129.142 Y133.276 E6.8644
G1 X128.942 Y133.503 E6.87446
G1 X128.304 Y134.167 E6.90509
G1 X127.61 Y134.772 E6.93571
G1 X126.866 Y135.315 E6.96635
G1 X126.079 Y135.791 E6.99694
G1 X125.252 Y136.198 E7.0276
G1 X124.394 Y136.531 E7.05821
G1 X123.51 Y136.788 E7.08883
G1 X122.607 Y136.967 E7.11944
G1 X121.288 Y137.087 E7.1635
G1 X120.965 Y137.096 E7.17424
G1 X120.67 Y137.1 E7.18406
G1 X109.556 Y137.099 E7.55371
G1 X108.784 Y137.088 E7.57939
G1 X107.989 Y137.047 E7.60587
G1 X107.777 Y137.028 E7.61294
G1 X106.627 Y136.861 E7.65159
G1 X106.399 Y136.815 E7.65933
G1 X105.505 Y136.594 E7.68996
G1 X105.033 Y136.443 E7.70644
G1 X104.732 Y136.339 E7.71704
G1 X103.876 Y136.001 E7.74764
G1 X103.179 Y135.659 E7.77347
G1 X102.922 Y135.521 E7.78317
G1 X102.131 Y135.05 E7.81379
G1 X101.517 Y134.616 E7.8388
G1 X101.249 Y134.412 E7.85
G1 X100.541 Y133.824 E7.88061
G1 X100.174 Y133.473 E7.8975
G1 X100.031 Y133.33 E7.90423
G1 X99.338 Y132.566 E7.93853
G1 X99.204 Y132.403 E7.94555
G1 X98.502 Y131.445 E7.98505
G1 X98.389 Y131.271 E7.99196
G1 X97.817 Y130.276 E8.03013
G1 X97.716 Y130.076 E8.03758
G1 X97.261 Y129.041 E8.07518
G1 X97.184 Y128.837 E8.08244
G1 X96.787 Y127.539 E8.12758
G1 X96.723 Y127.269 E8.13681
G1 X96.513 Y126.087 E8.17674
G1 X96.492 Y125.912 E8.1826
G1 X96.424 Y125.06 E8.21103
G1 X96.414 Y124.802 E8.21962
G1 X96.407 Y124.524 E8.22887
G1 X96.4 Y123.914 E8.24916
G1 X96.401 Y121.889 E8.31651
G1 X96.42 Y120.65 E8.35772
G1 X96.473 Y118.738 E8.42134
G1 X96.473 Y116.194 E8.50595
G1 X96.407 Y113.701 E8.5889
G1 X96.4 Y113.052 E8.61049
G1 X96.401 Y111.056 E8.67688
G1 X96.412 Y110.283 E8.70259
G1 X96.454 Y109.483 E8.72923
G1 X96.473 Y109.272 E8.73628
G1 X96.639 Y108.127 E8.77476
G1 X96.685 Y107.899 E8.7825
G1 X96.906 Y107.005 E8.81313
G1 X97.057 Y106.533 E8.82961
G1 X97.161 Y106.232 E8.8402
G1 X97.499 Y105.376 E8.87081
G1 X97.741 Y104.871 E8.88944
G1 X97.834 Y104.689 E8.89623
G1 X98.381 Y103.742 E8.93261
G1 X98.503 Y103.554 E8.94006
G1 X99.037 Y102.804 E8.97068
G1 X99.349 Y102.423 E8.98706
G1 X99.536 Y102.205 E8.99662
G1 X100.166 Y101.532 E9.02728
G0 F6000 X100.458 Y101.806
G1 F1200 X100.887 Y101.41 E9.04669
G1 X101.133 Y101.196 E9.05754
G1 X101.84 Y100.634 E9.08758
G1 X102.239 Y100.359 E9.1037
G1 X102.41 Y100.247 E9.11049
G1 X103.399 Y99.676 E9.14848
G1 X103.589 Y99.58 E9.15556
G1 X104.53 Y99.163 E9.18979
G1 X104.746 Y99.08 E9.19749
G1 X106.039 Y98.679 E9.24251
G1 X106.299 Y98.617 E9.2514
G1 X107.42 Y98.415 E9.28929
G1 X107.607 Y98.392 E9.29556
G1 X108.458 Y98.324 E9.32395
G1 X108.717 Y98.314 E9.33257
G1 X108.982 Y98.307 E9.34139
G1 X109.585 Y98.3 E9.36145
G1 X120.293 Y98.3 E9.71759
G1 X121.156 Y98.312 E9.7463
G1 X122.058 Y98.366 E9.77636
G1 X122.951 Y98.5 E9.80639
G1 X123.829 Y98.712 E9.83643
G1 X124.685 Y99.001 E9.86648
G1 X125.511 Y99.364 E9.89649
G1 X126.303 Y99.799 E9.92654
G1 X127.052 Y100.303 E9.95657
G1 X127.755 Y100.871 E9.98663
G1 X128.551 Y101.657 E10.02384
G1 X129.227 Y102.404 E10.05734
G1 X129.847 Y103.108 E10.08855
G1 X131.608 Y104.996 E10.17442
G1 X133.383 Y106.793 E10.25843
G1 X134.875 Y108.222 E10.32714
G1 X135.194 Y108.542 E10.34217
G1 X135.365 Y108.721 E10.3504
G1 X135.96 Y109.401 E10.38045
G1 X136.492 Y110.131 E10.4105
G1 X136.957 Y110.905 E10.44053
G1 X137.352 Y111.717 E10.47056
G1 X137.673 Y112.561 E10.5006
G1 X137.919 Y113.43 E10.53063
G1 X138.087 Y114.318 E10.56069
G1 X138.184 Y115.423 E10.59759
G1 X138.194 Y115.79 E10.6098
G1 X138.2 Y116.324 E10.62756
G1 X138.199 Y118.65 E10.70492
G1 X138.189 Y119.375 E10.72904
G1 X138.137 Y120.276 E10.75906
G1 X138.005 Y121.17 E10.78911
G1 X137.794 Y122.048 E10.81915
G1 X137.507 Y122.904 E10.84918
G1 X137.145 Y123.731 E10.8792
G1 X136.711 Y124.524 E10.90927
G1 X136.209 Y125.274 E10.93929
G1 X135.458 Y126.181 E10.97845
G1 X135.06 Y126.591 E10.99746
G1 X134.033 Y127.588 E11.04506
G1 X133.61 Y127.989 E11.06445
G1 X131.831 Y129.776 E11.14832
G1 X130.053 Y131.663 E11.23455
G1 X128.904 Y132.942 E11.29173
G1 X128.642 Y133.239 E11.30491
G1 X128.015 Y133.889 E11.33495
G1 X127.333 Y134.481 E11.36498
G1 X126.602 Y135.01 E11.39499
G1 X125.826 Y135.473 E11.42505
G1 X125.013 Y135.866 E11.45508
G1 X124.168 Y136.184 E11.48511
G1 X123.298 Y136.427 E11.51516
G1 X122.41 Y136.592 E11.5452
G1 X121.277 Y136.687 E11.58301
G1 X120.954 Y136.696 E11.59376
G1 X120.67 Y136.7 E11.60321
G1 X109.562 Y136.699 E11.97266
G1 X108.79 Y136.688 E11.99834
G1 X108.024 Y136.648 E12.02385
G1 X107.812 Y136.629 E12.03093
G1 X106.706 Y136.469 E12.0681
G1 X106.478 Y136.423 E12.07584
G1 X105.601 Y136.205 E12.10589
G1 X105.164 Y136.065 E12.12115
G1 X104.863 Y135.961 E12.13175
G1 X104.023 Y135.628 E12.1618
G1 X103.369 Y135.306 E12.18605
G1 X103.112 Y135.168 E12.19575
G1 X102.336 Y134.706 E12.22579
G1 X101.759 Y134.298 E12.24929
G1 X101.491 Y134.094 E12.26049
G1 X100.797 Y133.516 E12.29053
G1 X100.457 Y133.19 E12.3062
G1 X100.314 Y133.047 E12.31293
G1 X99.647 Y132.312 E12.34594
G1 X99.513 Y132.149 E12.35296
G1 X98.838 Y131.227 E12.39096
G1 X98.725 Y131.053 E12.39786
G1 X98.174 Y130.096 E12.43459
G1 X98.073 Y129.896 E12.44204
G1 X97.635 Y128.9 E12.47823
G1 X97.558 Y128.696 E12.48548
G1 X97.176 Y127.447 E12.52892
G1 X97.112 Y127.177 E12.53815
G1 X96.91 Y126.039 E12.5766
G1 X96.889 Y125.864 E12.58246
G1 X96.824 Y125.044 E12.60982
G1 X96.814 Y124.786 E12.6184
G1 X96.807 Y124.519 E12.62729
G1 X96.8 Y123.914 E12.64741
G1 X96.801 Y121.895 E12.71456
G1 X96.82 Y120.661 E12.75561
G1 X96.873 Y118.749 E12.81923
G1 X96.873 Y116.188 E12.90441
G1 X96.807 Y113.697 E12.98729
G1 X96.8 Y113.052 E13.00874
G1 X96.801 Y111.062 E13.07493
G1 X96.812 Y110.289 E13.10064
G1 X96.852 Y109.519 E13.12629
G1 X96.871 Y109.308 E13.13333
G1 X97.031 Y108.206 E13.17037
G1 X97.077 Y107.978 E13.17811
G1 X97.295 Y107.101 E13.20816
G1 X97.435 Y106.664 E13.22343
G1 X97.539 Y106.363 E13.23402
G1 X97.872 Y105.523 E13.26407
G1 X98.097 Y105.053 E13.2814
G1 X98.19 Y104.871 E13.2882
G1 X98.717 Y103.96 E13.32321
G1 X98.839 Y103.772 E13.33066
G1 X99.363 Y103.036 E13.36071
G1 X99.653 Y102.683 E13.3759
G1 X99.84 Y102.465 E13.38546
G1 X100.458 Y101.806 E13.41551
G1 F2700 E8.41551
G0 F6000 X121.157 Y107.839
G0 X121.661 Y108.343
G0 X123.6 Y117.444
G1 F2700 E13.41551
G1 F1200 X126.2 Y117.444 E13.50198
G1 X126.2 Y117.556 E13.50571
G1 X123.6 Y117.556 E13.59218
G1 X123.6 Y117.444 E13.59591
G0 F6000 X123.2 Y117.044
G1 F1200 X126.6 Y117.044 E13.70899
G1 X126.6 Y117.956 E13.73933
G1 X123.2 Y117.956 E13.85241
G1 X123.2 Y117.044 E13.88274
G0 F6000 X122.8 Y116.644
G1 F1200 X127 Y116.644 E14.02244
G1 X127 Y118.356 E14.07938
G1 X122.8 Y118.356 E14.21907
G1 X122.8 Y116.644 E14.27601
G0 F6000 X122.4 Y116.244
G1 F1200 X127.4 Y116.244 E14.44231
G1 X127.4 Y118.756 E14.52586
G1 X122.4 Y118.756 E14.69216
G1 X122.4 Y116.244 E14.77571
G0 F6000 X122 Y115.844
G1 F1200 X127.8 Y115.844 E14.96862
G1 X127.8 Y119.156 E15.07878
G1 X122 Y119.156 E15.27169
G1 X122 Y115.844 E15.38185
G1 F2700 E10.38185
;MESH:002-shelf-foot.stl
G0 F6000 X120.58 Y115.844
G0 X120.4 Y125.9
;TYPE:WALL-INNER
G1 F2700 E15.38185
G1 F1200 X109.034 Y125.9 E15.75988
G1 X108.704 Y125.865 E15.77092
G1 X108.429 Y125.775 E15.78054
G1 X108.174 Y125.628 E15.79033
G1 X107.965 Y125.439 E15.7997
G1 X107.789 Y125.196 E15.80968
G1 X107.669 Y124.926 E15.81951
G1 X107.607 Y124.634 E15.82944
G1 X107.6 Y124.489 E15.83427
G1 X107.6 Y121.624 E15.92956
G1 X107.794 Y121.463 E15.93794
G1 X108.165 Y121.093 E15.95537
G1 X108.498 Y120.687 E15.97283
G1 X108.789 Y120.251 E15.99027
G1 X109.037 Y119.787 E16.00777
G1 X109.237 Y119.302 E16.02522
G1 X109.389 Y118.804 E16.04253
G1 X109.472 Y118.412 E16.05586
G1 X109.536 Y117.895 E16.07319
G1 X109.55 Y117.43 E16.08866
G1 X109.518 Y116.908 E16.10606
G1 X109.447 Y116.458 E16.12121
G1 X109.372 Y116.134 E16.13227
G1 X109.28 Y115.821 E16.14312
G1 X109.142 Y115.449 E16.15632
G1 X108.919 Y114.979 E16.17362
G1 X108.684 Y114.581 E16.18899
G1 X108.455 Y114.257 E16.20219
G1 X108.165 Y113.908 E16.21728
G1 X107.889 Y113.625 E16.23043
G1 X107.6 Y113.371 E16.24322
G1 X107.6 Y110.534 E16.33758
G1 X107.635 Y110.204 E16.34862
G1 X107.725 Y109.929 E16.35825
G1 X107.872 Y109.674 E16.36803
G1 X108.061 Y109.465 E16.37741
G1 X108.304 Y109.289 E16.38739
G1 X108.574 Y109.169 E16.39721
G1 X108.866 Y109.107 E16.40714
G1 X109.011 Y109.1 E16.41197
G1 X120.4 Y109.1 E16.79077
G1 X120.4 Y125.9 E17.34954
G0 F6000 X120.8 Y126.3
;TYPE:WALL-OUTER
G1 F1200 X109.011 Y126.3 E17.74164
G1 X108.621 Y126.259 E17.75469
G1 X108.264 Y126.142 E17.76718
G1 X107.938 Y125.953 E17.77972
G1 X107.665 Y125.707 E17.79194
G1 X107.44 Y125.397 E17.80468
G1 X107.287 Y125.052 E17.81723
G1 X107.21 Y124.687 E17.82964
G1 X107.2 Y124.489 E17.83623
G1 X107.2 Y121.436 E17.93778
G1 X107.524 Y121.167 E17.95178
G1 X107.868 Y120.824 E17.96794
G1 X108.176 Y120.448 E17.9841
G1 X108.446 Y120.045 E18.00024
G1 X108.675 Y119.616 E18.01641
G1 X108.86 Y119.167 E18.03256
G1 X109.001 Y118.704 E18.04866
G1 X109.077 Y118.346 E18.06083
G1 X109.137 Y117.864 E18.07699
G1 X109.15 Y117.436 E18.09123
G1 X109.12 Y116.952 E18.10736
G1 X109.054 Y116.534 E18.12144
G1 X108.985 Y116.236 E18.13161
G1 X108.9 Y115.947 E18.14163
G1 X108.773 Y115.605 E18.15376
G1 X108.565 Y115.167 E18.16989
G1 X108.348 Y114.799 E18.1841
G1 X108.137 Y114.501 E18.19624
G1 X107.867 Y114.176 E18.2103
G1 X107.613 Y113.915 E18.22241
G1 X107.34 Y113.675 E18.2345
G1 X107.2 Y113.563 E18.24046
G1 X107.2 Y110.511 E18.34197
G1 X107.241 Y110.121 E18.35502
