;FLAVOR:Marlin
;TIME:531
;Filament used: 0.251861m
;Layer height: 0.2
;MINX:98.517
;MINY:98.517
;MINZ:0.2
;MAXX:136.483
;MAXY:136.483
;MAXZ:10
;Generated with Cura_SteamEngine master
M140 S50
M105
M190 S50
M104 S200
M105
M109 S200
M82 ;absolute extrusion mode
; Ender 3 Custom Start G-code
G92 E0 ; Reset Extruder
G28 ; Home all axes
G1 Z2.0 F3000 ; Move Z Axis up little to prevent scratching of Heat Bed
G1 X0.1 Y20 Z0.3 F5000.0 ; Move to start position
G1 X0.1 Y200.0 Z0.3 F1500.0 E15 ; Draw the first line
G1 X0.4 Y200.0 Z0.3 F5000.0 ; Move to side a little
G1 X0.4 Y20 Z0.3 F1500.0 E30 ; Draw the second line
G92 E0 ; Reset Extruder
G1 Z2.0 F3000 ; Move Z Axis up little to prevent scratching of Heat Bed
G1 X5 Y20 Z0.3 F5000.0 ; Move over to prevent blob squish
G92 E0
G92 E0
G1 F2700 E-5
;LAYER_COUNT:50
;LAYER:0
M107
G0 F6000 X104.271 Y103.88 Z0.2
;TYPE:SKIRT
G1 F2700 E0
G1 F1200 X104.353 Y103.8 E0.00381
G1 X104.865 Y103.332 E0.02688
G1 X105.356 Y102.91 E0.04842
G1 X105.707 Y102.62 E0.06356
G1 X106.236 Y102.219 E0.08564
G1 X106.725 Y101.871 E0.1056
G1 X107.001 Y101.68 E0.11676
G1 X107.094 Y101.618 E0.12048
G1 X107.682 Y101.253 E0.1435
G1 X108.243 Y100.928 E0.16506
G1 X108.614 Y100.722 E0.17918
G1 X109.238 Y100.408 E0.20241
G1 X109.769 Y100.162 E0.22188
G1 X110.191 Y99.977 E0.2372
G1 X110.819 Y99.732 E0.25962
G1 X111.458 Y99.505 E0.28218
G1 X111.949 Y99.343 E0.29937
G1 X112.495 Y99.188 E0.31825
G1 X113.087 Y99.037 E0.33857
G1 X113.395 Y98.963 E0.34911
G1 X113.533 Y98.932 E0.35381
G1 X114.236 Y98.798 E0.37761
G1 X114.815 Y98.707 E0.39711
G1 X115.188 Y98.655 E0.40963
G1 X115.327 Y98.638 E0.41429
G1 X115.95 Y98.58 E0.4351
G1 X116.582 Y98.539 E0.45617
G1 X116.989 Y98.52 E0.46972
G1 X117.097 Y98.517 E0.47331
G1 X117.71 Y98.517 E0.4937
G1 X118.317 Y98.534 E0.5139
G1 X118.701 Y98.552 E0.52668
G1 X118.828 Y98.56 E0.53091
G1 X119.456 Y98.617 E0.55189
G1 X120.06 Y98.69 E0.57212
G1 X120.517 Y98.755 E0.58748
G1 X121.176 Y98.876 E0.60976
G1 X121.807 Y99.012 E0.63123
G1 X122.238 Y99.114 E0.64596
G1 X122.331 Y99.138 E0.64916
G1 X122.89 Y99.298 E0.66849
G1 X123.502 Y99.491 E0.68984
G1 X123.831 Y99.6 E0.70137
G1 X124.54 Y99.87 E0.7266
G1 X125.144 Y100.124 E0.74839
G1 X125.589 Y100.323 E0.76461
G1 X126.156 Y100.605 E0.78567
G1 X126.682 Y100.886 E0.8055
G1 X127.001 Y101.063 E0.81764
G1 X127.117 Y101.13 E0.82209
G1 X127.66 Y101.465 E0.84331
G1 X128.189 Y101.813 E0.86437
G1 X128.588 Y102.088 E0.88049
G1 X129.102 Y102.475 E0.90189
G1 X129.576 Y102.854 E0.92208
G1 X129.916 Y103.136 E0.93677
G1 X130.452 Y103.62 E0.96079
G1 X130.887 Y104.04 E0.9809
G1 X131.12 Y104.271 E0.99181
G1 X131.2 Y104.353 E0.99562
G1 X131.669 Y104.866 E1.01874
G1 X132.084 Y105.349 E1.03992
G1 X132.356 Y105.677 E1.05409
G1 X132.781 Y106.236 E1.07745
G1 X133.129 Y106.725 E1.09741
G1 X133.342 Y107.034 E1.10989
G1 X133.74 Y107.669 E1.13482
G1 X134.071 Y108.24 E1.15677
G1 X134.278 Y108.614 E1.17099
G1 X134.592 Y109.238 E1.19422
G1 X134.838 Y109.769 E1.21369
G1 X135.023 Y110.191 E1.22901
G1 X135.268 Y110.819 E1.25143
G1 X135.495 Y111.458 E1.27399
G1 X135.618 Y111.822 E1.28677
G1 X135.813 Y112.498 E1.31017
G1 X135.965 Y113.096 E1.33069
G1 X136.037 Y113.395 E1.34092
G1 X136.068 Y113.533 E1.34562
G1 X136.202 Y114.236 E1.36942
G1 X136.293 Y114.815 E1.38892
G1 X136.339 Y115.139 E1.3998
G1 X136.356 Y115.273 E1.4043
G1 X136.42 Y115.95 E1.42691
G1 X136.461 Y116.587 E1.44814
G1 X136.48 Y116.986 E1.46143
G1 X136.483 Y117.093 E1.46499
G1 X136.483 Y117.708 E1.48544
G1 X136.466 Y118.316 E1.50567
G1 X136.448 Y118.701 E1.51849
G1 X136.44 Y118.828 E1.52273
G1 X136.383 Y119.448 E1.54343
G1 X136.312 Y120.039 E1.56323
G1 X136.265 Y120.387 E1.57491
G1 X136.245 Y120.518 E1.57932
G1 X136.124 Y121.176 E1.60157
G1 X135.988 Y121.807 E1.62304
G1 X135.877 Y122.275 E1.63904
G1 X135.703 Y122.887 E1.6602
G1 X135.511 Y123.496 E1.68144
G1 X135.402 Y123.826 E1.693
G1 X135.127 Y124.547 E1.71866
G1 X134.873 Y125.15 E1.74043
G1 X134.677 Y125.589 E1.75642
G1 X134.395 Y126.156 E1.77748
G1 X134.114 Y126.682 E1.79731
G1 X133.937 Y127.001 E1.80945
G1 X133.87 Y127.117 E1.8139
G1 X133.535 Y127.66 E1.83512
G1 X133.187 Y128.189 E1.85618
G1 X132.981 Y128.491 E1.86834
G1 X132.916 Y128.583 E1.87209
G1 X132.52 Y129.11 E1.89401
G1 X132.143 Y129.581 E1.91408
G1 X131.864 Y129.916 E1.92858
G1 X131.38 Y130.452 E1.9526
G1 X130.96 Y130.887 E1.97271
G1 X130.729 Y131.12 E1.98362
G1 X130.647 Y131.2 E1.98743
G1 X130.136 Y131.667 E2.01046
G1 X129.651 Y132.084 E2.03173
G1 X129.396 Y132.297 E2.04278
G1 X129.302 Y132.373 E2.0468
G1 X128.764 Y132.781 E2.06926
G1 X128.275 Y133.129 E2.08922
G1 X127.931 Y133.365 E2.1031
G1 X127.318 Y133.747 E2.12712
G1 X126.755 Y134.073 E2.14876
G1 X126.386 Y134.278 E2.1628
G1 X125.762 Y134.592 E2.18603
G1 X125.231 Y134.838 E2.2055
G1 X124.809 Y135.023 E2.22082
G1 X124.181 Y135.268 E2.24324
G1 X123.542 Y135.495 E2.2658
G1 X123.051 Y135.657 E2.283
G1 X122.505 Y135.812 E2.30187
G1 X121.913 Y135.963 E2.32219
G1 X121.605 Y136.037 E2.33273
G1 X121.467 Y136.068 E2.33743
G1 X120.764 Y136.202 E2.36124
G1 X120.185 Y136.293 E2.38073
G1 X119.812 Y136.345 E2.39326
G1 X119.673 Y136.362 E2.39791
G1 X119.05 Y136.42 E2.41872
G1 X118.418 Y136.461 E2.43979
G1 X118.011 Y136.48 E2.45334
G1 X117.903 Y136.483 E2.45693
G1 X117.29 Y136.483 E2.47732
G1 X116.683 Y136.466 E2.49752
G1 X116.299 Y136.448 E2.51031
G1 X116.172 Y136.44 E2.51454
G1 X115.544 Y136.383 E2.53551
G1 X114.94 Y136.31 E2.55575
G1 X114.483 Y136.245 E2.5711
G1 X113.824 Y136.124 E2.59338
G1 X113.193 Y135.988 E2.61485
G1 X112.762 Y135.886 E2.62958
G1 X112.669 Y135.862 E2.63278
G1 X112.11 Y135.702 E2.65212
G1 X111.498 Y135.509 E2.67346
G1 X111.169 Y135.4 E2.68499
G1 X110.453 Y135.127 E2.71048
G1 X109.852 Y134.874 E2.73216
G1 X109.411 Y134.677 E2.74823
G1 X108.844 Y134.395 E2.76929
G1 X108.318 Y134.114 E2.78913
G1 X108.009 Y133.943 E2.80087
G1 X107.891 Y133.875 E2.8054
G1 X107.329 Y133.528 E2.82737
G1 X106.798 Y133.178 E2.84852
G1 X106.408 Y132.909 E2.86428
G1 X105.898 Y132.526 E2.88549
G1 X105.421 Y132.145 E2.9058
G1 X105.12 Y131.896 E2.91879
G1 X105.021 Y131.811 E2.92313
G1 X104.547 Y131.379 E2.94446
G1 X104.114 Y130.961 E2.96448
G1 X103.801 Y130.647 E2.97922
G1 X103.331 Y130.134 E3.00237
G1 X102.915 Y129.65 E3.02359
G1 X102.634 Y129.311 E3.03824
G1 X102.215 Y128.759 E3.06129
G1 X101.868 Y128.271 E3.0812
G1 X101.618 Y127.906 E3.09592
G1 X101.253 Y127.318 E3.11894
G1 X100.928 Y126.757 E3.1405
G1 X100.717 Y126.378 E3.15493
G1 X100.407 Y125.759 E3.17795
G1 X100.162 Y125.23 E3.19734
G1 X100.032 Y124.94 E3.20791
G1 X99.984 Y124.828 E3.21197
G1 X99.727 Y124.169 E3.23549
G1 X99.502 Y123.534 E3.2579
G1 X99.343 Y123.051 E3.27481
G1 X99.188 Y122.505 E3.29369
G1 X99.037 Y121.913 E3.31401
G1 X98.961 Y121.596 E3.32485
G1 X98.929 Y121.453 E3.32973
G1 X98.797 Y120.755 E3.35335
G1 X98.707 Y120.181 E3.37268
G1 X98.653 Y119.794 E3.38567
G1 X98.636 Y119.653 E3.3904
G1 X98.58 Y119.05 E3.41054
G1 X98.539 Y118.42 E3.43154
G1 X98.52 Y117.995 E3.44569
G1 X98.517 Y117.881 E3.44948
G1 X98.517 Y117.281 E3.46944
G1 X98.534 Y116.68 E3.48943
G1 X98.552 Y116.299 E3.50212
G1 X98.56 Y116.172 E3.50635
G1 X98.617 Y115.544 E3.52733
G1 X98.69 Y114.94 E3.54756
G1 X98.755 Y114.483 E3.56291
G1 X98.878 Y113.814 E3.58554
G1 X99.019 Y113.163 E3.60769
G1 X99.125 Y112.717 E3.62294
G1 X99.299 Y112.106 E3.64407
G1 X99.493 Y111.492 E3.66549
G1 X99.587 Y111.207 E3.67547
G1 X99.873 Y110.453 E3.70229
G1 X100.127 Y109.85 E3.72405
G1 X100.323 Y109.411 E3.74004
G1 X100.607 Y108.839 E3.76128
G1 X100.891 Y108.308 E3.78131
G1 X101.126 Y107.891 E3.79723
G1 X101.465 Y107.34 E3.81875
G1 X101.813 Y106.811 E3.83981
G1 X102.019 Y106.509 E3.85197
G1 X102.084 Y106.417 E3.85571
G1 X102.48 Y105.89 E3.87764
G1 X102.857 Y105.419 E3.89771
G1 X103.136 Y105.084 E3.91221
G1 X103.62 Y104.548 E3.93623
G1 X104.04 Y104.113 E3.95634
G1 X104.271 Y103.88 E3.96725
G0 F6000 X104.633 Y104.087
G1 F1200 X105.126 Y103.635 E3.9895
G1 X105.617 Y103.213 E4.01103
G1 X105.958 Y102.931 E4.02575
G1 X106.468 Y102.545 E4.04702
G1 X106.957 Y102.197 E4.06698
G1 X107.223 Y102.013 E4.07774
G1 X107.316 Y101.951 E4.08146
G1 X107.882 Y101.599 E4.10363
G1 X108.443 Y101.274 E4.12519
G1 X108.805 Y101.073 E4.13896
G1 X109.406 Y100.771 E4.16133
G1 X109.937 Y100.525 E4.1808
G1 X110.347 Y100.345 E4.19569
G1 X110.953 Y100.109 E4.21732
G1 X111.592 Y99.882 E4.23987
G1 X112.068 Y99.725 E4.25655
G1 X112.594 Y99.576 E4.27473
G1 X113.186 Y99.425 E4.29505
G1 X113.621 Y99.323 E4.30991
G1 X114.298 Y99.194 E4.33283
G1 X114.877 Y99.103 E4.35233
G1 X115.236 Y99.052 E4.36439
G1 X115.375 Y99.035 E4.36904
G1 X115.976 Y98.979 E4.38912
G1 X116.608 Y98.938 E4.41018
G1 X117 Y98.92 E4.42324
G1 X117.108 Y98.917 E4.42683
G1 X117.699 Y98.917 E4.44649
G1 X118.306 Y98.934 E4.46668
G1 X118.675 Y98.951 E4.47897
G1 X118.802 Y98.959 E4.4832
G1 X119.408 Y99.015 E4.50344
G1 X120.012 Y99.088 E4.52368
G1 X120.338 Y99.132 E4.53462
G1 X120.456 Y99.15 E4.53859
G1 X121.091 Y99.267 E4.56007
G1 X121.722 Y99.403 E4.58153
G1 X122.138 Y99.501 E4.59575
G1 X122.231 Y99.525 E4.59894
G1 X122.77 Y99.68 E4.6176
G1 X123.382 Y99.873 E4.63894
G1 X123.701 Y99.979 E4.65012
G1 X124.385 Y100.239 E4.67446
G1 X124.989 Y100.493 E4.69625
G1 X125.422 Y100.686 E4.71202
G1 X125.968 Y100.958 E4.73231
G1 X126.494 Y101.239 E4.75214
G1 X126.801 Y101.409 E4.76382
G1 X126.917 Y101.476 E4.76827
G1 X127.441 Y101.799 E4.78874
G1 X127.97 Y102.147 E4.8098
G1 X128.357 Y102.414 E4.82544
G1 X128.853 Y102.787 E4.84608
G1 X129.327 Y103.166 E4.86627
G1 X129.658 Y103.441 E4.88058
G1 X130.174 Y103.907 E4.90371
G1 X130.609 Y104.327 E4.92382
G1 X130.913 Y104.633 E4.93816
G1 X131.366 Y105.127 E4.96046
G1 X131.781 Y105.61 E4.98164
G1 X132.046 Y105.93 E4.99546
G1 X132.455 Y106.468 E5.01793
G1 X132.803 Y106.957 E5.0379
G1 X133.01 Y107.257 E5.05002
G1 X133.394 Y107.87 E5.07408
G1 X133.725 Y108.441 E5.09603
G1 X133.927 Y108.805 E5.10988
G1 X134.229 Y109.406 E5.13225
G1 X134.475 Y109.937 E5.15171
G1 X134.655 Y110.347 E5.1666
G1 X134.891 Y110.953 E5.18823
G1 X135.118 Y111.592 E5.21079
G1 X135.237 Y111.945 E5.22318
G1 X135.425 Y112.597 E5.24575
G1 X135.577 Y113.195 E5.26627
G1 X135.677 Y113.621 E5.28082
G1 X135.806 Y114.298 E5.30375
G1 X135.897 Y114.877 E5.32324
G1 X135.942 Y115.189 E5.33372
G1 X135.959 Y115.323 E5.33822
G1 X136.021 Y115.976 E5.36003
G1 X136.062 Y116.613 E5.38126
G1 X136.08 Y116.997 E5.39405
G1 X136.083 Y117.104 E5.39761
G1 X136.083 Y117.697 E5.41733
G1 X136.066 Y118.305 E5.43756
G1 X136.049 Y118.675 E5.44988
G1 X136.041 Y118.802 E5.45412
G1 X135.986 Y119.4 E5.47409
G1 X135.915 Y119.991 E5.49389
G1 X135.87 Y120.327 E5.50516
G1 X135.85 Y120.458 E5.50957
G1 X135.733 Y121.091 E5.53098
G1 X135.597 Y121.722 E5.55245
G1 X135.489 Y122.177 E5.568
G1 X135.321 Y122.767 E5.58841
G1 X135.129 Y123.376 E5.60964
G1 X135.023 Y123.697 E5.62089
G1 X134.759 Y124.392 E5.64562
G1 X134.505 Y124.995 E5.66738
G1 X134.314 Y125.422 E5.68294
G1 X134.042 Y125.968 E5.70322
G1 X133.761 Y126.494 E5.72306
G1 X133.591 Y126.801 E5.73473
G1 X133.524 Y126.917 E5.73919
G1 X133.201 Y127.441 E5.75966
G1 X132.853 Y127.97 E5.78072
G1 X132.589 Y128.353 E5.79619
G1 X132.207 Y128.86 E5.81731
G1 X131.83 Y129.331 E5.83737
G1 X131.559 Y129.658 E5.8515
G1 X131.093 Y130.174 E5.87462
G1 X130.673 Y130.609 E5.89473
G1 X130.367 Y130.913 E5.90908
G1 X129.876 Y131.364 E5.93125
G1 X129.391 Y131.781 E5.95253
G1 X129.05 Y132.062 E5.96722
G1 X128.532 Y132.455 E5.98885
G1 X128.043 Y132.803 E6.00881
G1 X127.708 Y133.033 E6.02233
G1 X127.118 Y133.401 E6.04546
G1 X126.555 Y133.727 E6.06709
G1 X126.195 Y133.927 E6.08079
G1 X125.594 Y134.229 E6.10316
G1 X125.063 Y134.475 E6.12263
G1 X124.653 Y134.655 E6.13752
G1 X124.047 Y134.891 E6.15915
G1 X123.408 Y135.118 E6.1817
G1 X122.932 Y135.275 E6.19838
G1 X122.406 Y135.424 E6.21656
G1 X121.814 Y135.575 E6.23688
G1 X121.379 Y135.677 E6.25174
G1 X120.702 Y135.806 E6.27466
G1 X120.123 Y135.897 E6.29416
G1 X119.764 Y135.948 E6.30622
G1 X119.625 Y135.965 E6.31087
G1 X119.024 Y136.021 E6.33095
G1 X118.392 Y136.062 E6.35201
G1 X118 Y136.08 E6.36507
G1 X117.892 Y136.083 E6.36866
G1 X117.301 Y136.083 E6.38832
G1 X116.694 Y136.066 E6.40851
G1 X116.325 Y136.049 E6.4208
G1 X116.198 Y136.041 E6.42503
G1 X115.592 Y135.985 E6.44527
G1 X114.988 Y135.912 E6.46551
G1 X114.662 Y135.868 E6.47645
G1 X114.544 Y135.85 E6.48042
G1 X113.909 Y135.733 E6.5019
G1 X113.278 Y135.597 E6.52336
G1 X112.862 Y135.499 E6.53758
G1 X112.769 Y135.475 E6.54077
G1 X112.23 Y135.32 E6.55943
G1 X111.618 Y135.127 E6.58077
G1 X111.298 Y135.021 E6.59198
G1 X110.608 Y134.759 E6.61653
G1 X110.007 Y134.506 E6.63822
G1 X109.578 Y134.314 E6.65385
G1 X109.032 Y134.042 E6.67414
G1 X108.506 Y133.761 E6.69398
G1 X108.208 Y133.596 E6.7053
G1 X108.09 Y133.528 E6.70983
G1 X107.549 Y133.194 E6.73098
G1 X107.018 Y132.844 E6.75213
G1 X106.639 Y132.583 E6.76744
G1 X106.148 Y132.213 E6.78789
G1 X105.671 Y131.832 E6.80819
G1 X105.381 Y131.592 E6.82071
G1 X105.282 Y131.507 E6.82505
G1 X104.825 Y131.091 E6.84561
G1 X104.392 Y130.673 E6.86562
G1 X104.087 Y130.367 E6.87999
G1 X103.634 Y129.873 E6.90229
G1 X103.218 Y129.389 E6.92351
G1 X102.945 Y129.059 E6.93776
G1 X102.541 Y128.528 E6.95995
G1 X102.194 Y128.04 E6.97987
G1 X101.951 Y127.684 E6.9942
G1 X101.599 Y127.118 E7.01637
G1 X101.274 Y126.557 E7.03794
G1 X101.069 Y126.187 E7.052
G1 X100.769 Y125.591 E7.0742
G1 X100.524 Y125.062 E7.09359
G1 X100.352 Y124.671 E7.10779
G1 X100.104 Y124.035 E7.1305
G1 X99.879 Y123.4 E7.15291
G1 X99.725 Y122.932 E7.16929
G1 X99.576 Y122.406 E7.18748
G1 X99.425 Y121.814 E7.2078
G1 X99.352 Y121.509 E7.21823
G1 X99.32 Y121.366 E7.2231
G1 X99.192 Y120.693 E7.24589
G1 X99.102 Y120.119 E7.26521
G1 X99.05 Y119.746 E7.27774
G1 X99.033 Y119.605 E7.28246
G1 X98.979 Y119.024 E7.30187
G1 X98.938 Y118.394 E7.32287
G1 X98.92 Y117.985 E7.33648
G1 X98.917 Y117.871 E7.34028
G1 X98.917 Y117.292 E7.35953
G1 X98.934 Y116.691 E7.37953
G1 X98.951 Y116.325 E7.39172
G1 X98.959 Y116.198 E7.39595
G1 X99.015 Y115.592 E7.41619
G1 X99.088 Y114.988 E7.43643
G1 X99.132 Y114.662 E7.44737
G1 X99.15 Y114.544 E7.45134
G1 X99.269 Y113.898 E7.47318
G1 X99.41 Y113.247 E7.49534
G1 X99.513 Y112.815 E7.51011
G1 X99.681 Y112.226 E7.53048
G1 X99.938 Y111.418 E7.55868
G1 X99.966 Y111.335 E7.5616
G1 X100.241 Y110.608 E7.58745
G1 X100.495 Y110.005 E7.60921
G1 X100.686 Y109.578 E7.62477
G1 X100.96 Y109.028 E7.64521
G1 X101.244 Y108.497 E7.66523
G1 X101.408 Y108.201 E7.67649
G1 X101.472 Y108.09 E7.68075
G1 X101.799 Y107.559 E7.70149
G1 X102.147 Y107.03 E7.72255
G1 X102.411 Y106.647 E7.73802
G1 X102.793 Y106.14 E7.75914
G1 X103.17 Y105.669 E7.7792
G1 X103.441 Y105.342 E7.79333
G1 X103.907 Y104.826 E7.81645
G1 X104.327 Y104.391 E7.83657
G1 X104.633 Y104.087 E7.85091
G0 F6000 X104.912 Y104.373
G1 F1200 X105.387 Y103.938 E7.87234
G1 X105.878 Y103.516 E7.89387
G1 X106.209 Y103.243 E7.90814
G1 X106.7 Y102.871 E7.92863
G1 X107.189 Y102.523 E7.94859
G1 X107.538 Y102.284 E7.96266
G1 X108.083 Y101.945 E7.98401
G1 X108.644 Y101.62 E8.00557
G1 X108.996 Y101.425 E8.01895
G1 X109.574 Y101.134 E8.04048
G1 X110.105 Y100.888 E8.05994
G1 X110.504 Y100.713 E8.07443
G1 X111.087 Y100.485 E8.09525
G1 X111.726 Y100.258 E8.11781
G1 X112.187 Y100.107 E8.13394
G1 X112.693 Y99.963 E8.15144
G1 X113.285 Y99.812 E8.17176
G1 X113.708 Y99.713 E8.18621
G1 X114.36 Y99.589 E8.20828
G1 X114.939 Y99.498 E8.22778
G1 X115.285 Y99.449 E8.2394
G1 X115.424 Y99.432 E8.24406
G1 X116.002 Y99.378 E8.26337
G1 X116.634 Y99.337 E8.28443
G1 X117.011 Y99.32 E8.29698
G1 X117.119 Y99.317 E8.30058
G1 X117.688 Y99.317 E8.3195
G1 X118.295 Y99.334 E8.3397
G1 X118.65 Y99.35 E8.35152
G1 X118.777 Y99.358 E8.35575
G1 X119.36 Y99.412 E8.37522
G1 X119.964 Y99.485 E8.39546
G1 X120.396 Y99.546 E8.40997
G1 X121.007 Y99.658 E8.43063
G1 X121.638 Y99.794 E8.4521
G1 X122.038 Y99.889 E8.46577
G1 X122.131 Y99.913 E8.46897
G1 X122.65 Y100.061 E8.48692
G1 X123.262 Y100.254 E8.50826
G1 X123.572 Y100.357 E8.51913
G1 X124.23 Y100.608 E8.54255
G1 X124.834 Y100.862 E8.56434
G1 X125.161 Y101.006 E8.57623
G1 X125.254 Y101.049 E8.57964
G1 X125.779 Y101.31 E8.59914
G1 X126.305 Y101.591 E8.61897
G1 X126.601 Y101.755 E8.63023
G1 X126.717 Y101.822 E8.63468
