;FLAVOR:Marlin
;TIME:701
;Filament used: 0.200483m
;Layer height: 0.2
;MINX:101.54
;MINY:101.527
;MINZ:0.2
;MAXX:133.474
;MAXY:133.473
;MAXZ:30
;Generated with Cura_SteamEngine master
M140 S50
M105
M190 S50
M104 S200
M105
M109 S200
M82 ;absolute extrusion mode
; Ender 3 Custom Start G-code
G92 E0 ; Reset Extruder
G28 ; Home all axes
G1 Z2.0 F3000 ; Move Z Axis up little to prevent scratching of Heat Bed
G1 X0.1 Y20 Z0.3 F5000.0 ; Move to start position
G1 X0.1 Y200.0 Z0.3 F1500.0 E15 ; Draw the first line
G1 X0.4 Y200.0 Z0.3 F5000.0 ; Move to side a little
G1 X0.4 Y20 Z0.3 F1500.0 E30 ; Draw the second line
G92 E0 ; Reset Extruder
G1 Z2.0 F3000 ; Move Z Axis up little to prevent scratching of Heat Bed
G1 X5 Y20 Z0.3 F5000.0 ; Move over to prevent blob squish
G92 E0
G92 E0
G1 F2700 E-5
;LAYER_COUNT:150
;LAYER:0
M107
G0 F6000 X106.282 Y106.133 Z0.2
;TYPE:SKIRT
G1 F2700 E0
G1 F1200 X106.524 Y105.904 E0.01108
G1 X106.915 Y105.544 E0.02876
G1 X107.827 Y104.791 E0.0681
G1 X108.061 Y104.618 E0.07777
G1 X108.402 Y104.376 E0.09168
G1 X108.726 Y104.155 E0.10473
G1 X109.729 Y103.546 E0.14375
G1 X110.078 Y103.359 E0.15692
G1 X110.442 Y103.172 E0.17053
G1 X110.71 Y103.041 E0.18046
G1 X111.84 Y102.565 E0.22124
G1 X112.397 Y102.366 E0.24091
G1 X113.656 Y101.999 E0.28453
G1 X114.104 Y101.897 E0.29981
G1 X114.597 Y101.794 E0.31656
G1 X115.464 Y101.653 E0.34578
G1 X115.628 Y101.633 E0.35127
G1 X115.999 Y101.594 E0.36368
G1 X116.341 Y101.564 E0.3751
G1 X116.682 Y101.539 E0.38647
G1 X116.877 Y101.528 E0.39297
G1 X118.085 Y101.527 E0.43314
G1 X118.621 Y101.558 E0.451
G1 X119.063 Y101.598 E0.46576
G1 X119.31 Y101.625 E0.47403
G1 X119.7 Y101.674 E0.4871
G1 X120.287 Y101.77 E0.50688
G1 X120.642 Y101.838 E0.51891
G1 X121.123 Y101.942 E0.53527
G1 X121.316 Y101.988 E0.54187
G1 X122.149 Y102.221 E0.57064
G1 X122.511 Y102.338 E0.58329
G1 X122.824 Y102.444 E0.59429
G1 X122.981 Y102.5 E0.59983
G1 X123.642 Y102.761 E0.62347
G1 X124.101 Y102.959 E0.64009
G1 X125.268 Y103.547 E0.68356
G1 X125.795 Y103.855 E0.70386
G1 X125.975 Y103.964 E0.71086
G1 X127.005 Y104.671 E0.75241
G1 X127.556 Y105.097 E0.77557
G1 X128.249 Y105.68 E0.80569
G1 X128.707 Y106.12 E0.82682
G1 X129.097 Y106.518 E0.84535
G1 X129.965 Y107.518 E0.88939
G1 X130.309 Y107.966 E0.90818
G1 X130.556 Y108.3 E0.922
G1 X130.661 Y108.448 E0.92803
G1 X131.288 Y109.441 E0.96709
G1 X131.521 Y109.863 E0.98313
G1 X131.713 Y110.226 E0.99678
G1 X131.85 Y110.494 E1.00679
G1 X131.939 Y110.674 E1.01347
G1 X132.412 Y111.78 E1.05348
G1 X132.559 Y112.183 E1.06775
G1 X132.692 Y112.568 E1.0813
G1 X132.767 Y112.8 E1.08941
G1 X132.992 Y113.597 E1.11695
G1 X133.088 Y114.023 E1.13148
G1 X133.186 Y114.498 E1.14761
G1 X133.376 Y115.819 E1.192
G1 X133.44 Y116.597 E1.21796
G1 X133.474 Y117.773 E1.25709
G1 X133.468 Y118.014 E1.26511
G1 X133.432 Y118.67 E1.28696
G1 X133.4 Y119.047 E1.29954
G1 X133.275 Y120.009 E1.33181
G1 X133.213 Y120.364 E1.34379
G1 X133.116 Y120.855 E1.36044
G1 X133.047 Y121.166 E1.37104
G1 X132.692 Y122.412 E1.41413
G1 X132.447 Y123.113 E1.43883
G1 X132.005 Y124.191 E1.47758
G1 X131.88 Y124.455 E1.48729
G1 X131.595 Y125.015 E1.50819
G1 X131.427 Y125.323 E1.51986
G1 X131.214 Y125.697 E1.53418
G1 X130.667 Y126.534 E1.56743
G1 X130.288 Y127.061 E1.58902
G1 X129.786 Y127.708 E1.61626
G1 X129.63 Y127.894 E1.62433
G1 X129.076 Y128.506 E1.65179
G1 X128.837 Y128.751 E1.66317
G1 X128.169 Y129.381 E1.69371
G1 X127.936 Y129.583 E1.70397
G1 X127.64 Y129.832 E1.71684
G1 X127.326 Y130.087 E1.73029
G1 X126.846 Y130.451 E1.75033
G1 X126.624 Y130.61 E1.75941
G1 X125.615 Y131.252 E1.79918
G1 X125.091 Y131.547 E1.81919
G1 X124.309 Y131.948 E1.84841
G1 X124.006 Y132.088 E1.85952
G1 X123.136 Y132.445 E1.89079
G1 X122.81 Y132.563 E1.90233
G1 X121.85 Y132.862 E1.93577
G1 X121.227 Y133.025 E1.95719
G1 X120.696 Y133.15 E1.97533
G1 X120.567 Y133.177 E1.97971
G1 X119.32 Y133.364 E2.02165
G1 X118.623 Y133.428 E2.04493
G1 X117.484 Y133.473 E2.08285
G1 X117.153 Y133.469 E2.09386
G1 X116.563 Y133.446 E2.11349
G1 X115.88 Y133.384 E2.1363
G1 X115.179 Y133.298 E2.15979
G1 X113.965 Y133.08 E2.20082
G1 X113.768 Y133.033 E2.20755
G1 X112.961 Y132.807 E2.23543
G1 X112.322 Y132.602 E2.25775
G1 X111.396 Y132.259 E2.29059
G1 X111.214 Y132.182 E2.29716
G1 X110.762 Y131.978 E2.31366
G1 X110.454 Y131.831 E2.32501
G1 X109.475 Y131.302 E2.36202
G1 X108.926 Y130.968 E2.38339
G1 X108.474 Y130.677 E2.40127
G1 X108.381 Y130.614 E2.40501
G1 X107.848 Y130.23 E2.42686
G1 X107.671 Y130.094 E2.43428
G1 X107.344 Y129.833 E2.4482
G1 X106.978 Y129.521 E2.4642
G1 X106.794 Y129.357 E2.47239
G1 X106.522 Y129.106 E2.4847
G1 X106.436 Y129.024 E2.48866
G1 X106.097 Y128.686 E2.50458
G1 X105.874 Y128.454 E2.51528
G1 X105.469 Y128.009 E2.53529
G1 X105.345 Y127.865 E2.54161
G1 X104.974 Y127.411 E2.56111
G1 X104.784 Y127.165 E2.57145
G1 X104.259 Y126.423 E2.60168
G1 X104.016 Y126.048 E2.61655
G1 X103.749 Y125.614 E2.63349
G1 X103.572 Y125.311 E2.64517
G1 X103.18 Y124.577 E2.67284
G1 X103.088 Y124.388 E2.67983
G1 X102.724 Y123.556 E2.71004
G1 X102.538 Y123.077 E2.72713
G1 X102.423 Y122.767 E2.73813
G1 X102.355 Y122.575 E2.7449
G1 X102.09 Y121.718 E2.77474
G1 X102.036 Y121.514 E2.78176
G1 X101.886 Y120.867 E2.80385
G1 X101.808 Y120.479 E2.81701
G1 X101.629 Y119.211 E2.8596
G1 X101.573 Y118.529 E2.88236
G1 X101.543 Y118.066 E2.89779
G1 X101.54 Y116.795 E2.94007
G1 X101.569 Y116.369 E2.95427
G1 X101.608 Y115.912 E2.96952
G1 X101.655 Y115.462 E2.98457
G1 X101.808 Y114.52 E3.01631
G1 X101.886 Y114.144 E3.02908
G1 X101.958 Y113.822 E3.04006
G1 X102.028 Y113.529 E3.05008
G1 X102.277 Y112.651 E3.08043
G1 X102.346 Y112.441 E3.08778
G1 X102.552 Y111.868 E3.10804
G1 X102.712 Y111.459 E3.12264
G1 X103.259 Y110.274 E3.16605
G1 X103.516 Y109.794 E3.18416
G1 X104.011 Y108.959 E3.21645
G1 X104.29 Y108.533 E3.23339
G1 X104.88 Y107.717 E3.26688
G1 X105.156 Y107.375 E3.28149
G1 X105.475 Y106.995 E3.298
G1 X106.282 Y106.133 E3.33727
G0 F6000 X106.559 Y106.421
G1 F1200 X106.795 Y106.198 E3.34807
G1 X107.186 Y105.838 E3.36575
G1 X108.064 Y105.112 E3.40364
G1 X108.298 Y104.939 E3.41332
G1 X108.627 Y104.706 E3.42673
G1 X108.951 Y104.485 E3.43977
G1 X109.918 Y103.899 E3.47738
G1 X110.267 Y103.712 E3.49055
G1 X110.618 Y103.532 E3.50367
G1 X110.886 Y103.401 E3.51359
G1 X111.975 Y102.942 E3.55289
G1 X112.532 Y102.743 E3.57257
G1 X113.745 Y102.389 E3.61459
G1 X114.193 Y102.287 E3.62988
G1 X114.677 Y102.186 E3.64632
G1 X115.513 Y102.05 E3.67449
G1 X115.677 Y102.03 E3.67999
G1 X116.034 Y101.993 E3.69193
G1 X116.376 Y101.963 E3.70334
G1 X116.705 Y101.939 E3.71432
G1 X116.9 Y101.928 E3.72081
G1 X118.064 Y101.926 E3.75953
G1 X118.344 Y101.941 E3.76885
G1 X118.681 Y101.964 E3.78009
G1 X119.02 Y101.996 E3.79141
G1 X119.267 Y102.023 E3.79968
G1 X119.646 Y102.071 E3.81238
G1 X120.212 Y102.163 E3.83146
G1 X120.567 Y102.231 E3.84348
G1 X121.031 Y102.331 E3.85926
G1 X121.224 Y102.377 E3.86586
G1 X122.026 Y102.602 E3.89357
G1 X122.388 Y102.719 E3.90622
G1 X122.689 Y102.821 E3.91679
G1 X122.846 Y102.877 E3.92234
G1 X123.484 Y103.128 E3.94514
G1 X123.943 Y103.326 E3.96177
G1 X125.067 Y103.893 E4.00364
G1 X125.588 Y104.197 E4.0237
G1 X125.768 Y104.306 E4.0307
G1 X126.761 Y104.987 E4.07075
G1 X127.312 Y105.413 E4.09391
G1 X127.98 Y105.976 E4.12297
G1 X128.421 Y106.4 E4.14331
G1 X128.811 Y106.798 E4.16185
G1 X129.647 Y107.761 E4.20426
G1 X129.991 Y108.209 E4.22305
G1 X130.229 Y108.532 E4.23639
G1 X130.334 Y108.68 E4.24243
G1 X130.939 Y109.637 E4.28009
G1 X131.167 Y110.05 E4.29578
G1 X131.359 Y110.413 E4.30944
G1 X131.491 Y110.671 E4.31907
G1 X131.58 Y110.851 E4.32575
G1 X132.036 Y111.917 E4.36432
G1 X132.183 Y112.32 E4.37858
G1 X132.311 Y112.691 E4.39164
G1 X132.386 Y112.923 E4.39975
G1 X132.603 Y113.691 E4.42629
G1 X132.696 Y114.104 E4.44037
G1 X132.794 Y114.579 E4.4565
G1 X132.977 Y115.852 E4.49928
G1 X133.041 Y116.63 E4.52524
G1 X133.074 Y117.763 E4.56294
G1 X133.068 Y118.004 E4.57096
G1 X133.033 Y118.637 E4.59205
G1 X133.001 Y119.014 E4.60463
G1 X132.881 Y119.941 E4.63572
G1 X132.819 Y120.296 E4.64771
G1 X132.725 Y120.768 E4.66371
G1 X132.656 Y121.079 E4.67431
G1 X132.314 Y122.28 E4.71584
G1 X132.069 Y122.981 E4.74054
G1 X131.643 Y124.02 E4.77789
G1 X131.518 Y124.284 E4.7876
G1 X131.244 Y124.824 E4.80774
G1 X131.076 Y125.132 E4.81941
G1 X130.869 Y125.494 E4.83328
G1 X130.343 Y126.301 E4.86532
G1 X129.964 Y126.828 E4.88691
G1 X129.48 Y127.451 E4.91315
G1 X129.324 Y127.637 E4.92123
G1 X128.79 Y128.227 E4.94769
G1 X128.551 Y128.472 E4.95908
G1 X127.907 Y129.079 E4.98851
G1 X127.516 Y129.415 E5.00566
G1 X127.233 Y129.649 E5.01787
G1 X127.076 Y129.775 E5.02457
G1 X126.613 Y130.126 E5.04389
G1 X126.391 Y130.285 E5.05297
G1 X125.419 Y130.904 E5.0913
G1 X124.895 Y131.199 E5.1113
G1 X124.141 Y131.585 E5.13948
G1 X123.838 Y131.725 E5.15058
G1 X123 Y132.069 E5.18071
G1 X122.674 Y132.187 E5.19224
G1 X121.749 Y132.475 E5.22446
G1 X121.126 Y132.638 E5.24588
G1 X120.615 Y132.758 E5.26334
G1 X120.486 Y132.785 E5.26772
G1 X119.283 Y132.966 E5.30818
G1 X118.586 Y133.03 E5.33146
G1 X117.489 Y133.073 E5.36798
G1 X117.158 Y133.069 E5.37899
G1 X116.654 Y133.051 E5.39576
G1 X116.587 Y133.047 E5.39799
G1 X115.928 Y132.987 E5.42
G1 X115.227 Y132.901 E5.44349
G1 X114.058 Y132.691 E5.483
G1 X113.861 Y132.644 E5.48973
G1 X113.083 Y132.426 E5.5166
G1 X112.444 Y132.221 E5.53892
G1 X111.552 Y131.89 E5.57057
G1 X111.37 Y131.813 E5.57714
G1 X110.934 Y131.617 E5.59304
G1 X110.626 Y131.47 E5.60439
G1 X109.683 Y130.96 E5.64005
G1 X109.134 Y130.626 E5.66142
G1 X108.698 Y130.346 E5.67866
G1 X108.605 Y130.283 E5.68239
G1 X108.092 Y129.912 E5.70345
G1 X107.915 Y129.776 E5.71087
G1 X107.596 Y129.523 E5.72442
G1 X107.244 Y129.222 E5.73982
G1 X107.06 Y129.058 E5.74802
G1 X106.798 Y128.817 E5.75986
G1 X106.712 Y128.735 E5.76381
G1 X106.385 Y128.409 E5.77917
G1 X106.162 Y128.177 E5.78987
G1 X105.772 Y127.748 E5.80916
G1 X105.648 Y127.604 E5.81548
G1 X105.291 Y127.166 E5.83427
G1 X105.101 Y126.92 E5.84461
G1 X104.594 Y126.205 E5.87376
G1 X104.351 Y125.83 E5.88862
G1 X104.094 Y125.413 E5.90492
G1 X103.917 Y125.11 E5.91659
G1 X103.539 Y124.402 E5.94328
G1 X103.447 Y124.213 E5.95027
G1 X103.097 Y123.411 E5.97938
G1 X102.911 Y122.932 E5.99647
G1 X102.8 Y122.634 E6.00704
G1 X102.732 Y122.442 E6.01382
G1 X102.477 Y121.615 E6.0426
G1 X102.423 Y121.411 E6.04962
G1 X102.278 Y120.788 E6.0709
G1 X102.2 Y120.4 E6.08406
G1 X102.028 Y119.178 E6.1251
G1 X101.972 Y118.496 E6.14786
G1 X101.942 Y118.042 E6.163
G1 X101.94 Y116.818 E6.20371
G1 X101.967 Y116.403 E6.21754
G1 X102.006 Y115.946 E6.23279
G1 X102.052 Y115.509 E6.24741
G1 X102.2 Y114.601 E6.27801
G1 X102.278 Y114.225 E6.29078
G1 X102.347 Y113.915 E6.30134
G1 X102.417 Y113.622 E6.31136
G1 X102.657 Y112.776 E6.34061
G1 X102.726 Y112.566 E6.34796
G1 X102.924 Y112.013 E6.3675
G1 X103.084 Y111.604 E6.38211
G1 X103.611 Y110.463 E6.42391
G1 X103.868 Y109.983 E6.44202
G1 X104.346 Y109.178 E6.47316
G1 X104.625 Y108.752 E6.49009
G1 X105.193 Y107.965 E6.52237
G1 X105.462 Y107.633 E6.53659
G1 X105.781 Y107.253 E6.55309
G1 X106.559 Y106.421 E6.59097
G0 F6000 X106.836 Y106.71
G1 F1200 X107.066 Y106.492 E6.60151
G1 X107.457 Y106.132 E6.61919
G1 X108.302 Y105.434 E6.65565
G1 X108.536 Y105.261 E6.66532
G1 X108.852 Y105.037 E6.67821
G1 X109.176 Y104.816 E6.69125
G1 X110.107 Y104.251 E6.72747
G1 X110.456 Y104.064 E6.74064
G1 X110.794 Y103.891 E6.75327
G1 X111.062 Y103.76 E6.76319
G1 X112.109 Y103.319 E6.80098
G1 X112.666 Y103.12 E6.82065
G1 X113.834 Y102.78 E6.86111
G1 X114.282 Y102.678 E6.87639
G1 X114.507 Y102.629 E6.88405
G1 X114.757 Y102.578 E6.89254
G1 X115.561 Y102.447 E6.91963
G1 X115.725 Y102.427 E6.92513
G1 X116.069 Y102.391 E6.93663
G1 X116.411 Y102.361 E6.94805
G1 X116.728 Y102.338 E6.95862
G1 X116.923 Y102.327 E6.96512
G1 X118.043 Y102.326 E7.00237
G1 X118.559 Y102.356 E7.01956
G1 X118.976 Y102.393 E7.03348
G1 X119.223 Y102.42 E7.04175
G1 X119.592 Y102.467 E7.05412
G1 X120.137 Y102.556 E7.07249
G1 X120.492 Y102.624 E7.08451
G1 X120.938 Y102.72 E7.09968
G1 X121.131 Y102.766 E7.10628
G1 X121.903 Y102.982 E7.13295
G1 X122.265 Y103.099 E7.1456
G1 X122.555 Y103.198 E7.15579
G1 X122.712 Y103.254 E7.16133
G1 X123.325 Y103.495 E7.18324
G1 X123.784 Y103.693 E7.19987
G1 X124.866 Y104.239 E7.24018
G1 X125.38 Y104.539 E7.25997
G1 X125.56 Y104.648 E7.26697
G1 X126.516 Y105.304 E7.30553
G1 X127.067 Y105.73 E7.3287
G1 X127.711 Y106.272 E7.3567
G1 X128.135 Y106.68 E7.37627
G1 X128.525 Y107.078 E7.3948
G1 X129.33 Y108.005 E7.43563
G1 X129.674 Y108.453 E7.45442
G1 X129.903 Y108.763 E7.46724
G1 X130.008 Y108.911 E7.47328
G1 X130.59 Y109.832 E7.50951
G1 X130.813 Y110.237 E7.52489
G1 X131.005 Y110.6 E7.53855
G1 X131.132 Y110.848 E7.54781
G1 X131.221 Y111.028 E7.55449
G1 X131.66 Y112.054 E7.59161
G1 X131.807 Y112.457 E7.60588
G1 X131.93 Y112.814 E7.61844
G1 X132.005 Y113.046 E7.62655
G1 X132.214 Y113.785 E7.65209
G1 X132.305 Y114.185 E7.66573
G1 X132.403 Y114.66 E7.68187
G1 X132.579 Y115.885 E7.72303
G1 X132.643 Y116.663 E7.74899
G1 X132.674 Y117.753 E7.78526
G1 X132.668 Y117.994 E7.79328
G1 X132.634 Y118.603 E7.81356
G1 X132.602 Y118.98 E7.82615
G1 X132.487 Y119.872 E7.85606
G1 X132.425 Y120.227 E7.86805
G1 X132.335 Y120.681 E7.88344
G1 X132.266 Y120.992 E7.89404
G1 X131.937 Y122.148 E7.93401
G1 X131.692 Y122.849 E7.95871
G1 X131.282 Y123.849 E7.99466
G1 X131.157 Y124.113 E8.00437
G1 X130.893 Y124.632 E8.02374
G1 X130.725 Y124.94 E8.03541
G1 X130.525 Y125.29 E8.04882
G1 X130.018 Y126.067 E8.07968
G1 X129.639 Y126.594 E8.10127
G1 X129.173 Y127.194 E8.12653
G1 X129.017 Y127.38 E8.13461
G1 X128.503 Y127.948 E8.16009
G1 X128.264 Y128.193 E8.17147
G1 X127.645 Y128.777 E8.19977
G1 X127.26 Y129.108 E8.21666
G1 X126.982 Y129.337 E8.22864
G1 X126.825 Y129.463 E8.23534
G1 X126.38 Y129.801 E8.25392
G1 X126.158 Y129.96 E8.26301
G1 X125.223 Y130.555 E8.29987
G1 X124.699 Y130.85 E8.31987
G1 X123.973 Y131.221 E8.34698
G1 X123.67 Y131.361 E8.35809
G1 X122.864 Y131.693 E8.38708
G1 X122.538 Y131.811 E8.39861
G1 X121.648 Y132.088 E8.42961
G1 X121.025 Y132.251 E8.45103
G1 X120.533 Y132.367 E8.46784
G1 X120.404 Y132.394 E8.47223
G1 X119.247 Y132.567 E8.51114
G1 X118.55 Y132.631 E8.53442
G1 X117.494 Y132.673 E8.56957
G1 X117.163 Y132.669 E8.58058
G1 X116.678 Y132.652 E8.59672
G1 X116.611 Y132.648 E8.59895
G1 X115.977 Y132.59 E8.62012
G1 X115.276 Y132.504 E8.64361
G1 X114.151 Y132.302 E8.68163
G1 X113.954 Y132.255 E8.68837
G1 X113.205 Y132.045 E8.71424
G1 X112.566 Y131.84 E8.73656
G1 X111.708 Y131.522 E8.76699
G1 X111.526 Y131.445 E8.77357
G1 X111.107 Y131.256 E8.78885
G1 X110.799 Y131.109 E8.80021
G1 X109.891 Y130.618 E8.83454
G1 X109.342 Y130.284 E8.85591
G1 X108.922 Y130.015 E8.8725
G1 X108.829 Y129.952 E8.87624
G1 X108.335 Y129.595 E8.89651
G1 X108.158 Y129.459 E8.90393
G1 X107.849 Y129.213 E8.91707
G1 X107.51 Y128.923 E8.93191
G1 X107.326 Y128.759 E8.94011
G1 X107.074 Y128.527 E8.9515
G1 X106.988 Y128.445 E8.95545
G1 X106.673 Y128.131 E8.97024
G1 X106.45 Y127.899 E8.98095
G1 X106.075 Y127.487 E8.99948
G1 X105.951 Y127.343 E9.0058
G1 X105.607 Y126.922 E9.02388
G1 X105.417 Y126.676 E9.03422
G1 X104.93 Y125.988 E9.06225
G1 X104.687 Y125.613 E9.07712
G1 X104.44 Y125.211 E9.09281
G1 X104.263 Y124.908 E9.10448
G1 X103.899 Y124.227 E9.13016
G1 X103.807 Y124.038 E9.13715
G1 X103.47 Y123.266 E9.16517
G1 X103.284 Y122.787 E9.18226
G1 X103.177 Y122.5 E9.19245
G1 X103.109 Y122.308 E9.19922
G1 X102.864 Y121.513 E9.22689
G1 X102.81 Y121.309 E9.23391
G1 X102.67 Y120.709 E9.2544
G1 X102.592 Y120.321 E9.26757
G1 X102.426 Y119.146 E9.30703
G1 X102.37 Y118.464 E9.32979
G1 X102.341 Y118.018 E9.34466
G1 X102.339 Y116.84 E9.38384
G1 X102.366 Y116.437 E9.39727
G1 X102.405 Y115.98 E9.41253
G1 X102.45 Y115.556 E9.42671
G1 X102.592 Y114.682 E9.45616
G1 X102.67 Y114.306 E9.46893
G1 X102.736 Y114.008 E9.47908
G1 X102.806 Y113.715 E9.4891
G1 X103.037 Y112.901 E9.51725
G1 X103.106 Y112.691 E9.5246
G1 X103.297 Y112.159 E9.5434
G1 X103.457 Y111.75 E9.55801
G1 X103.964 Y110.651 E9.59826
G1 X104.221 Y110.171 E9.61637
G1 X104.68 Y109.398 E9.64627
G1 X104.959 Y108.972 E9.66321
G1 X105.506 Y108.214 E9.6943
G1 X105.595 Y108.102 E9.69906
G1 X105.769 Y107.89 E9.70818
